(Header)
(Generated by gcodetools from Inkscape.)
(Using default header. To add your own header create file "header" in the output dir.)
M3
(Header end.)
G21 (All units in mm)

(Start cutting path id: path1488)
(Change tool to Cylindrical cutter)

G00 Z5.000000
G00 X54.733291 Y17.587225

G01 Z-1.000000 F100.0(Penetrate)
G02 X55.039385 Y17.248418 Z-1.000000 I-2.740238 J-2.783322 F400.000000
G02 X55.257176 Y16.854924 Z-1.000000 I-1.032352 J-0.828406
G02 X55.283683 Y16.169164 Z-1.000000 I-1.108833 J-0.386253
G02 X54.946497 Y15.560970 Z-1.000000 I-1.368078 J0.360905
G02 X54.713833 Y15.365705 Z-1.000000 I-0.938368 J0.881851
G03 X54.500650 Y15.144962 Z-1.000000 I0.380542 J-0.580821
G00 Z5.000000

(End cutting path id: path1488)


(Start cutting path id: path1484)
(Change tool to Cylindrical cutter)

G00 Z5.000000
G00 X49.510820 Y20.238132

G01 Z-1.000000 F100.0(Penetrate)
G02 X49.978800 Y20.246022 Z-1.000000 I0.250616 J-0.982114 F400.000000
G03 X50.441679 Y20.210514 Z-1.000000 I0.357818 J1.629710
G02 X50.873255 Y20.203322 Z-1.000000 I0.170018 J-2.749938
G03 X51.308047 Y20.176501 Z-1.000000 I0.617943 J6.479885
G03 X52.228065 Y20.156550 Z-1.000000 I2.047088 J73.175100
G02 X53.147385 Y20.131150 Z-1.000000 I-0.579153 J-37.611833
G02 X53.888354 Y20.097604 Z-1.000000 I-2.708445 J-68.024729
G02 X54.628338 Y19.969515 Z-1.000000 I-0.157998 J-3.114293
G02 X55.278733 Y19.559502 Z-1.000000 I-0.414546 J-1.378448
G02 X55.571566 Y18.880802 Z-1.000000 I-0.842243 J-0.765918
G02 X55.505508 Y18.462863 Z-1.000000 I-0.915136 J-0.069549
G02 X55.262653 Y18.087452 Z-1.000000 I-1.125405 J0.461772
G02 X55.012868 Y17.862376 Z-1.000000 I-1.586387 J1.509403
G03 X54.757910 Y17.646153 Z-1.000000 I2.180157 J-2.829141
G02 X54.611133 Y17.609942 Z-1.000000 I-0.106044 J0.114262
G03 X54.500827 Y17.639466 Z-1.000000 I-5.242974 J-19.367707
G00 Z5.000000

(End cutting path id: path1484)


(Start cutting path id: path1480)
(Change tool to Cylindrical cutter)

G00 Z5.000000
G00 X49.785601 Y20.300722

G01 Z-1.000000 F100.0(Penetrate)
G02 X49.862041 Y20.622171 Z-1.000000 I0.650415 J0.015146 F400.000000
G03 X50.004991 Y20.902203 Z-1.000000 I-7.615872 J4.064227
G03 X50.204956 Y21.432482 Z-1.000000 I-2.750783 J1.340148
G02 X50.358370 Y21.969984 Z-1.000000 I26.525905 J-7.280363
G03 X50.498611 Y22.926816 Z-1.000000 I-3.249246 J0.964931
G03 X50.406665 Y23.867455 Z-1.000000 I-4.741581 J0.011330
G03 X50.252791 Y24.518702 Z-1.000000 I-9.152995 J-1.818829
G03 X49.935198 Y25.144548 Z-1.000000 I-1.689001 J-0.463597
G03 X49.613251 Y25.436344 Z-1.000000 I-1.049656 J-0.834613
G03 X49.195458 Y25.610558 Z-1.000000 I-0.691627 J-1.070558
G03 X48.502342 Y25.439621 Z-1.000000 I-0.173463 J-0.787333
G03 X48.193629 Y24.914887 Z-1.000000 I0.590754 J-0.700734
G02 X47.861433 Y23.619494 Z-1.000000 I-11.362392 J2.223528
G02 X47.376734 Y22.366514 Z-1.000000 I-10.621325 J3.388481
G02 X46.925951 Y21.476481 Z-1.000000 I-11.479282 J5.254844
G02 X46.343394 Y20.651901 Z-1.000000 I-4.139637 J2.306529
G02 X45.840925 Y20.230737 Z-1.000000 I-1.629974 J1.434322
G03 X45.300337 Y19.887331 Z-1.000000 I8.357046 J-13.752825
G02 X44.558466 Y19.419328 Z-1.000000 I-10.243254 J15.415459
G03 X43.840587 Y18.906472 Z-1.000000 I2.790611 J-4.665065
G03 X43.367439 Y18.370265 Z-1.000000 I1.578480 J-1.869704
G03 X43.118516 Y17.692463 Z-1.000000 I1.360391 J-0.884214
G02 X43.022878 Y17.045650 Z-1.000000 I-16.349040 J2.086883
G03 X42.983348 Y16.397636 Z-1.000000 I3.033971 J-0.510290
G03 X43.141621 Y15.136626 Z-1.000000 I7.939296 J0.356046
G03 X43.612952 Y13.935314 Z-1.000000 I3.756208 J0.780617
G03 X44.458340 Y13.096871 Z-1.000000 I2.086317 J1.258181
G03 X45.620145 Y12.766947 Z-1.000000 I1.206731 J2.038844
G02 X46.283502 Y12.700602 Z-1.000000 I-0.077598 J-4.125385
G02 X46.931476 Y12.557925 Z-1.000000 I-1.647238 J-9.023774
G02 X48.000641 Y12.227519 Z-1.000000 I-2.987847 J-11.563446
G03 X49.070009 Y11.925048 Z-1.000000 I2.663013 J7.373340
G03 X50.131602 Y11.788640 Z-1.000000 I1.417524 J6.832772
G03 X51.224443 Y11.815740 Z-1.000000 I0.368051 J7.206519
G03 X51.914759 Y11.890809 Z-1.000000 I-4.279841 J42.567876
G03 X52.598793 Y12.010226 Z-1.000000 I-0.715525 J6.117449
G03 X53.020662 Y12.159524 Z-1.000000 I-0.463027 J1.979046
G03 X53.397430 Y12.374487 Z-1.000000 I-1.389228 J2.872584
G03 X53.591073 Y12.567024 Z-1.000000 I-0.387565 J0.583437
G03 X53.674244 Y12.848927 Z-1.000000 I-0.405848 J0.272959
G02 X53.742809 Y13.001405 Z-1.000000 I0.195465 J0.003760
G02 X53.866835 Y13.077717 Z-1.000000 I0.306494 J-0.359190
G03 X54.204422 Y13.250928 Z-1.000000 I-0.931547 J2.231154
G03 X54.504979 Y13.491980 Z-1.000000 I-0.821780 J1.332543
G03 X54.688262 Y13.742889 Z-1.000000 I-0.795816 J0.773718
G03 X54.778848 Y14.038226 Z-1.000000 I-0.710947 J0.379624
G03 X54.786079 Y14.503945 Z-1.000000 I-2.631585 J0.273777
G03 X54.629251 Y14.958326 Z-1.000000 I-0.933356 J-0.067890
G03 X54.490127 Y15.096063 Z-1.000000 I-0.414642 J-0.279687
G03 X54.289123 Y15.134497 Z-1.000000 I-0.146664 J-0.222203
G00 Z5.000000

(End cutting path id: path1480)


(Start cutting path id: path1470)
(Change tool to Cylindrical cutter)

G00 Z5.000000
G00 X47.787066 Y2.688723

G01 Z-1.000000 F100.0(Penetrate)
G01 X47.787066 Y1.607278 Z-1.000000 F400.000000
G00 Z5.000000

(End cutting path id: path1470)


(Start cutting path id: path1466)
(Change tool to Cylindrical cutter)

G00 Z5.000000
G00 X1.846046 Y20.235980

G01 Z-1.000000 F100.0(Penetrate)
G02 X1.690270 Y20.178101 Z-1.000000 I-94.533504 J254.212479 F400.000000
G03 X1.510336 Y20.111265 Z-1.000000 I162.477515 J-437.765392
G01 X1.510336 Y14.223496 Z-1.000000
G03 X3.292629 Y14.108925 Z-1.000000 I1.149670 J3.964385
G03 X4.667484 Y14.765090 Z-1.000000 I-0.406313 J2.619785
G03 X5.160102 Y15.447917 Z-1.000000 I-1.363120 J1.502520
G03 X5.419298 Y16.258182 Z-1.000000 I-3.666055 J1.619323
G03 X5.509457 Y17.415069 Z-1.000000 I-4.555175 J0.936952
G03 X5.315051 Y18.563229 Z-1.000000 I-4.841517 J-0.229224
G03 X4.484382 Y19.742177 Z-1.000000 I-2.163492 J-0.642252
G03 X2.976859 Y20.235980 Z-1.000000 I-1.510885 J-2.064507
G03 X2.429122 Y20.236089 Z-1.000000 I-0.365904 J-458.670857
G02 X1.881384 Y20.235980 Z-1.000000 I-0.541027 J1376.012540
G00 Z5.000000

(End cutting path id: path1466)


(Start cutting path id: path1462)
(Change tool to Cylindrical cutter)

G00 Z5.000000
G00 X36.830665 Y18.422031

G01 Z-1.000000 F100.0(Penetrate)
G02 X36.824323 Y16.260250 Z-1.000000 I-48.394226 J-0.938931 F400.000000
G03 X36.901341 Y14.096252 Z-1.000000 I17.800368 J-0.449848
G00 Z5.000000

(End cutting path id: path1462)


(Start cutting path id: path1458)
(Change tool to Cylindrical cutter)

G00 Z5.000000
G00 X33.014053 Y5.235264

G01 Z-1.000000 F100.0(Penetrate)
G03 X33.455120 Y5.427627 Z-1.000000 I-0.064459 J0.749641 F400.000000
G03 X33.752321 Y5.761451 Z-1.000000 I-1.410806 J1.555234
G02 X34.189721 Y6.038113 Z-1.000000 I0.560203 J-0.401584
G02 X34.745021 Y5.932099 Z-1.000000 I0.140074 J-0.773630
G02 X35.098581 Y5.533696 Z-1.000000 I-0.491520 J-0.792279
G02 X35.187923 Y5.096305 Z-1.000000 I-0.870137 J-0.405556
G03 X35.172617 Y3.333707 Z-1.000000 I35.758440 J-1.191879
G02 X35.169665 Y1.572306 Z-1.000000 I-49.955905 J-0.796975
G00 Z5.000000

(End cutting path id: path1458)


(Start cutting path id: path1454)
(Change tool to Cylindrical cutter)

G00 Z5.000000
G00 X32.872701 Y5.933087

G01 Z-1.000000 F100.0(Penetrate)
G02 X32.952200 Y3.768327 Z-1.000000 I-14.191216 J-1.604998 F400.000000
G03 X32.943377 Y1.607308 Z-1.000000 I30.747633 J-1.206062
G00 Z5.000000

(End cutting path id: path1454)


(Start cutting path id: path1450)
(Change tool to Cylindrical cutter)

G00 Z5.000000
G00 X24.815687 Y18.683642

G01 Z-1.000000 F100.0(Penetrate)
G03 X24.531099 Y18.465271 Z-1.000000 I0.277854 J-0.656738 F400.000000
G03 X24.349227 Y18.145536 Z-1.000000 I1.004826 J-0.783159
G02 X23.645042 Y16.357816 Z-1.000000 I-430.977532 J168.729992
G02 X22.890360 Y14.592175 Z-1.000000 I-33.544778 J13.293826
G03 X22.589118 Y13.910748 Z-1.000000 I22.838227 J-10.503520
G03 X22.307579 Y13.223799 Z-1.000000 I27.412661 J-11.635949
G02 X21.951644 Y12.590553 Z-1.000000 I-2.490793 J0.983373
G02 X21.388499 Y12.106887 Z-1.000000 I-1.399429 J1.059717
G02 X20.881862 Y11.952149 Z-1.000000 I-0.634880 J1.171925
G02 X20.363111 Y11.933333 Z-1.000000 I-0.415706 J4.300442
G00 Z5.000000

(End cutting path id: path1450)


(Start cutting path id: path1446)
(Change tool to Cylindrical cutter)

G00 Z5.000000
G00 X22.518782 Y14.061366

G01 Z-1.000000 F100.0(Penetrate)
G02 X22.118049 Y14.521683 Z-1.000000 I0.484247 J0.826154 F400.000000
G03 X21.889178 Y15.041062 Z-1.000000 I-11.369002 J-4.699776
G02 X21.136419 Y16.693445 Z-1.000000 I83.225905 J38.912019
G02 X20.400274 Y18.353133 Z-1.000000 I7330.539336 J3252.412179
G03 X20.159736 Y18.576556 Z-1.000000 I-0.380577 J-0.168536
G02 X19.903777 Y18.735999 Z-1.000000 I0.238916 J0.668711
G00 Z5.000000

(End cutting path id: path1446)


(Start cutting path id: path1442)
(Change tool to Cylindrical cutter)

G00 Z5.000000
G00 X33.155404 Y18.422031

G01 Z-1.000000 F100.0(Penetrate)
G02 X33.154595 Y17.078950 Z-1.000000 I-1113.747147 J0.000023 F400.000000
G03 X33.156877 Y15.735862 Z-1.000000 I231.156715 J-0.278756
G03 X33.197644 Y15.217612 Z-1.000000 I3.504229 J0.014927
G03 X33.340045 Y14.727676 Z-1.000000 I1.943279 J0.299155
G03 X33.911420 Y14.159967 Z-1.000000 I1.005896 J0.441004
G03 X34.922005 Y14.028807 Z-1.000000 I0.735362 J1.707095
G03 X35.598060 Y14.258420 Z-1.000000 I-0.295620 J1.980458
G03 X36.156476 Y14.691628 Z-1.000000 I-1.124120 J2.025536
G02 X36.425656 Y14.897032 Z-1.000000 I0.770584 J-0.730757
G02 X36.759871 Y14.968385 Z-1.000000 I0.290532 J-0.542446
G00 Z5.000000

(End cutting path id: path1442)


(Start cutting path id: path1438)
(Change tool to Cylindrical cutter)

G00 Z5.000000
G00 X37.396042 Y1.607220

G01 Z-1.000000 F100.0(Penetrate)
G02 X37.397330 Y3.229378 Z-1.000000 I1021.242105 J0.000002 F400.000000
G03 X37.393097 Y4.851555 Z-1.000000 I-193.210851 J0.306900
G03 X37.354816 Y5.293769 Z-1.000000 I-2.789072 J-0.018675
G03 X37.151327 Y5.726014 Z-1.000000 I-0.870707 J-0.145885
G03 X36.554370 Y6.011173 Z-1.000000 I-0.625482 J-0.541974
G03 X35.946599 Y5.759155 Z-1.000000 I-0.027344 J-0.792919
G03 X35.647487 Y5.419989 Z-1.000000 I6.000711 J-5.593529
G02 X35.240429 Y5.165523 Z-1.000000 I-0.591440 J0.493291
G00 Z5.000000

(End cutting path id: path1438)


(Start cutting path id: path1434)
(Change tool to Cylindrical cutter)

G00 Z5.000000
G00 X47.573389 Y3.979451

G01 Z-1.000000 F100.0(Penetrate)
G02 X47.953397 Y4.771536 Z-1.000000 I1.592106 J-0.276625 F400.000000
G02 X48.560495 Y5.377771 Z-1.000000 I5.070946 J-4.471067
G03 X48.969531 Y5.791100 Z-1.000000 I-2.756082 J3.136509
G03 X49.230443 Y6.317349 Z-1.000000 I-0.899137 J0.773593
G03 X48.860391 Y7.530063 Z-1.000000 I-1.277499 J0.272996
G03 X47.926474 Y7.955215 Z-1.000000 I-1.066507 J-1.104435
G03 X47.066243 Y7.863586 Z-1.000000 I-0.195396 J-2.249417
G03 X46.301225 Y7.467983 Z-1.000000 I0.714667 J-2.319524
G00 Z5.000000

(End cutting path id: path1434)


(Start cutting path id: path1430)
(Change tool to Cylindrical cutter)

G00 Z5.000000
G00 X39.551625 Y3.804995

G01 Z-1.000000 F100.0(Penetrate)
G01 X42.873388 Y3.804995 Z-1.000000 F400.000000
G03 X43.428337 Y4.069797 Z-1.000000 I-0.000000 J0.713908
G03 X43.541569 Y4.641371 Z-1.000000 I-0.485959 J0.393275
G03 X42.685857 Y5.755471 Z-1.000000 I-1.882728 J-0.560401
G03 X41.707826 Y6.053936 Z-1.000000 I-1.063930 J-1.734686
G03 X40.219000 Y5.573350 Z-1.000000 I-0.094965 J-2.252247
G03 X39.527183 Y4.396302 Z-1.000000 I1.158856 J-1.472959
G03 X39.467951 Y3.449173 Z-1.000000 I4.846289 J-0.778497
G03 X39.756290 Y2.474993 Z-1.000000 I2.025037 J0.069612
G03 X40.435389 Y1.776960 Z-1.000000 I1.830290 J1.101290
G03 X41.286422 Y1.453143 Z-1.000000 I1.201949 J1.878657
G03 X42.142260 Y1.410723 Z-1.000000 I0.623568 J3.926029
G03 X43.014740 Y1.642396 Z-1.000000 I-0.132040 J2.255978
G02 X43.278925 Y1.743443 Z-1.000000 I0.654412 J-1.315078
G02 X43.580147 Y1.711876 Z-1.000000 I0.110313 J-0.400323
G00 Z5.000000

(End cutting path id: path1430)


(Start cutting path id: path1426)
(Change tool to Cylindrical cutter)

G00 Z5.000000
G00 X28.773533 Y13.991508

G01 Z-1.000000 F100.0(Penetrate)
G03 X29.979731 Y14.378511 Z-1.000000 I0.054549 J1.903207 F400.000000
G03 X30.706517 Y15.425004 Z-1.000000 I-1.246871 J1.641569
G03 X30.825588 Y16.403837 Z-1.000000 I-2.763071 J0.832777
G03 X30.589313 Y17.416084 Z-1.000000 I-2.920524 J-0.148002
G03 X29.819809 Y18.305983 Z-1.000000 I-1.799475 J-0.778374
G03 X28.562095 Y18.592591 Z-1.000000 I-1.048530 J-1.698333
G03 X27.470073 Y18.149856 Z-1.000000 I0.222579 J-2.117121
G03 X26.798144 Y17.199795 Z-1.000000 I1.258115 J-1.602441
G03 X26.756472 Y15.485300 Z-1.000000 I2.738098 J-0.924306
G03 X27.784955 Y14.202565 Z-1.000000 I2.035999 J0.578762
G03 X28.244636 Y14.032369 Z-1.000000 I0.824842 J1.521936
G03 X28.738195 Y13.991508 Z-1.000000 I0.403119 J1.868029
G00 Z5.000000

(End cutting path id: path1426)


(Start cutting path id: path1422)
(Change tool to Cylindrical cutter)

G00 Z5.000000
G00 X9.691121 Y13.991508

G01 Z-1.000000 F100.0(Penetrate)
G03 X10.896966 Y14.378659 Z-1.000000 I0.054506 J1.901710 F400.000000
G03 X11.624399 Y15.425004 Z-1.000000 I-1.251135 J1.645839
G03 X11.751517 Y16.426746 Z-1.000000 I-2.898370 J0.876732
G03 X11.498066 Y17.447481 Z-1.000000 I-2.617759 J-0.108163
G03 X10.818074 Y18.238266 Z-1.000000 I-1.799929 J-0.859995
G03 X9.866927 Y18.587649 Z-1.000000 I-1.177035 J-1.734941
G03 X8.822387 Y18.425534 Z-1.000000 I-0.219725 J-2.030417
G03 X7.997552 Y17.757379 Z-1.000000 I0.818155 J-1.853215
G03 X7.507520 Y16.006249 Z-1.000000 I2.137230 J-1.542207
G03 X8.310292 Y14.476705 Z-1.000000 I2.190402 J0.174183
G03 X8.939110 Y14.112389 Z-1.000000 I1.456431 J1.789000
G03 X9.655783 Y13.991508 Z-1.000000 I0.656742 J1.708737
G00 Z5.000000

(End cutting path id: path1422)


(Footer)
M5
G00 X0.0000 Y0.0000
M2
(Using default footer. To add your own footer create file "footer" in the output dir.)
(end)