(Header)
(Generated by gcodetools from Inkscape.)
(Using default header. To add your own header create file "header" in the output dir.)
M3
(Header end.)
G21 (All units in mm)

(Start cutting path id: path4112)
(Change tool to Cylindrical cutter)

G00 Z5.000000
G00 X30.732775 Y31.539525

G01 Z-1.000000 F100.0(Penetrate)
G03 X30.164263 Y31.535762 Z-1.000000 I-0.276809 J-1.127009 F400.000000
G02 X29.623906 Y31.425278 Z-1.000000 I-1.323492 J5.096305
G03 X27.228912 Y30.900712 Z-1.000000 I2.732438 J-18.205076
G03 X24.883772 Y30.203655 Z-1.000000 I51.188926 J-176.510660
G03 X23.793810 Y29.814136 Z-1.000000 I3.527719 J-11.591077
G02 X22.717558 Y29.383018 Z-1.000000 I-22.073601 J53.546069
G03 X20.682369 Y28.505189 Z-1.000000 I10.956737 J-28.200627
G03 X18.695762 Y27.527436 Z-1.000000 I35.186493 J-73.999299
G03 X17.864464 Y27.052490 Z-1.000000 I4.515365 J-8.868224
G02 X17.038059 Y26.573137 Z-1.000000 I-6.174646 J9.693056
G03 X16.014268 Y25.972851 Z-1.000000 I5.951297 J-11.323158
G03 X15.045082 Y25.294764 Z-1.000000 I9.551150 J-14.683075
G03 X13.366671 Y23.991662 Z-1.000000 I39.764859 J-52.950050
G03 X11.767013 Y22.586437 Z-1.000000 I14.957866 J-18.640617
G03 X10.055482 Y20.746512 Z-1.000000 I15.397256 J-16.038808
G03 X8.524785 Y18.758786 Z-1.000000 I26.456543 J-21.956752
G03 X8.156291 Y18.176952 Z-1.000000 I5.124596 J-3.653177
G03 X7.887839 Y17.538657 Z-1.000000 I2.710900 J-1.515742
G00 Z5.000000

(End cutting path id: path4112)


(Start cutting path id: path4110)
(Change tool to Cylindrical cutter)

G00 Z5.000000
G00 X40.270540 Y32.121961

G01 Z-1.000000 F100.0(Penetrate)
G03 X39.976334 Y32.523496 Z-1.000000 I-0.607429 J-0.136515 F400.000000
G02 X39.602978 Y32.784295 Z-1.000000 I1.389353 J2.386613
G03 X38.582962 Y33.368495 Z-1.000000 I-2.191537 J-2.643860
G03 X37.474846 Y33.742328 Z-1.000000 I-8.762686 J-24.145094
G03 X36.284792 Y33.992588 Z-1.000000 I-1.893107 J-6.047585
G03 X35.086858 Y34.099257 Z-1.000000 I-2.983391 J-26.724785
G03 X34.470925 Y34.122526 Z-1.000000 I-0.723681 J-10.992121
G03 X33.839101 Y34.087309 Z-1.000000 I-0.047309 J-4.836587
G02 X32.930320 Y33.982398 Z-1.000000 I-8.460730 J69.301073
G03 X32.082832 Y33.651229 Z-1.000000 I0.188494 J-1.732353
G03 X31.827879 Y33.426270 Z-1.000000 I1.155519 J-1.566542
G02 X31.321932 Y32.942599 Z-1.000000 I-5.337048 J5.076382
G03 X31.123918 Y32.607797 Z-1.000000 I53.724696 J-32.000666
G03 X30.978444 Y32.260850 Z-1.000000 I1.214501 J-0.713210
G03 X30.775467 Y30.563939 Z-1.000000 I5.692135 J-1.541463
G03 X30.974710 Y28.875253 Z-1.000000 I9.344157 J0.246394
G02 X31.107625 Y28.226470 Z-1.000000 I-54.479581 J-11.499150
G02 X31.234566 Y27.574479 Z-1.000000 I-84.976040 J-16.882971
G03 X31.572098 Y26.540115 Z-1.000000 I4.206538 J0.800417
G03 X32.065658 Y25.578515 Z-1.000000 I15.558474 J7.378223
G03 X32.737295 Y24.823285 Z-1.000000 I2.012985 J1.113914
G03 X33.700212 Y24.470393 Z-1.000000 I1.116099 J1.555264
G01 X33.838354 Y24.441271 Z-1.000000
G02 X33.988204 Y24.481803 Z-1.000000 I0.281217 J-0.742412
G02 X34.143013 Y24.498022 Z-1.000000 I0.208337 J-1.241684
G03 X34.962134 Y24.613987 Z-1.000000 I-0.216930 J4.483213
G03 X35.718577 Y24.920661 Z-1.000000 I-0.621186 J2.618475
G03 X36.769481 Y25.580392 Z-1.000000 I-13.209976 J22.209417
G03 X37.760837 Y26.367044 Z-1.000000 I-4.057626 J6.131498
G03 X38.936424 Y27.652238 Z-1.000000 I-8.202536 J8.683242
G03 X39.985295 Y29.020862 Z-1.000000 I-48.291851 J38.095630
G03 X40.395910 Y29.732041 Z-1.000000 I-2.829031 J2.107533
G03 X40.632695 Y30.539676 Z-1.000000 I-3.181487 J1.371287
G03 X40.625318 Y31.233080 Z-1.000000 I-1.967385 J0.325809
G03 X40.490820 Y31.898694 Z-1.000000 I-23.859194 J-4.474737
G03 X40.375096 Y32.053886 Z-1.000000 I-0.228147 J-0.049382
G03 X40.186908 Y32.062971 Z-1.000000 I-0.103396 J-0.188149
G02 X39.951578 Y31.995269 Z-1.000000 I-0.382488 J0.886676
G03 X39.714238 Y31.954697 Z-1.000000 I1.124089 J-7.290179
G03 X38.915754 Y31.784276 Z-1.000000 I2.685886 J-14.540137
G03 X38.131954 Y31.544752 Z-1.000000 I1.646287 J-6.789368
G03 X37.725788 Y31.350760 Z-1.000000 I0.858302 J-2.319243
G02 X37.274727 Y31.233373 Z-1.000000 I-0.428030 J0.719410
G00 Z5.000000

(End cutting path id: path4110)


(Start cutting path id: path4108)
(Change tool to Cylindrical cutter)

G00 Z5.000000
G00 X31.370468 Y25.301485

G01 Z-1.000000 F100.0(Penetrate)
G03 X30.205579 Y25.051930 Z-1.000000 I3.002368 J-16.858218 F400.000000
G03 X29.069099 Y24.691420 Z-1.000000 I2.366604 J-9.432132
G03 X27.275822 Y23.927199 Z-1.000000 I10.246450 J-26.529821
G03 X25.550587 Y23.023264 Z-1.000000 I9.065434 J-19.400470
G03 X24.523773 Y22.313666 Z-1.000000 I4.111381 J-7.047038
G02 X23.553130 Y21.528344 Z-1.000000 I-384.189570 J473.858693
G03 X22.363762 Y20.502381 Z-1.000000 I15.253785 J-18.885639
G03 X21.254001 Y19.391998 Z-1.000000 I12.799029 J-13.901623
G03 X20.450887 Y18.509628 Z-1.000000 I77.289029 J-71.153408
G03 X19.715025 Y17.581220 Z-1.000000 I7.047854 J-6.341996
G02 X19.231672 Y16.977642 Z-1.000000 I-4.748036 J3.306966
G03 X18.774167 Y16.350637 Z-1.000000 I2.565055 J-2.352052
G02 X18.552285 Y15.962315 Z-1.000000 I-329.588948 J188.065163
G03 X18.338833 Y15.569575 Z-1.000000 I8.871054 J-5.075739
G00 Z5.000000

(End cutting path id: path4108)


(Start cutting path id: path4106)
(Change tool to Cylindrical cutter)

G00 Z5.000000
G00 X19.614966 Y17.288508

G01 Z-1.000000 F100.0(Penetrate)
G03 X20.007273 Y17.167230 Z-1.000000 I0.361629 J0.474638 F400.000000
G02 X20.392294 Y17.157833 Z-1.000000 I0.130674 J-2.538338
G03 X20.774748 Y17.143123 Z-1.000000 I0.312353 J3.141908
G03 X21.169622 Y17.198903 Z-1.000000 I-0.037564 J1.691526
G02 X21.384901 Y17.210067 Z-1.000000 I0.134244 J-0.507442
G02 X21.612423 Y17.151860 Z-1.000000 I-0.190198 J-1.217233
G03 X22.184504 Y16.964097 Z-1.000000 I3.477672 J9.630477
G02 X22.745186 Y16.755355 Z-1.000000 I-1.237048 J-4.180091
G02 X23.452028 Y16.191598 Z-1.000000 I-0.759444 J-1.677194
G02 X23.884670 Y15.403058 Z-1.000000 I-2.434580 J-1.848720
G02 X24.243693 Y14.142233 Z-1.000000 I-8.009894 J-2.962366
G02 X24.332698 Y12.824658 Z-1.000000 I-4.874557 J-0.991080
G03 X24.349092 Y12.604672 Z-1.000000 I0.785277 J-0.052085
G02 X24.383475 Y12.381111 Z-1.000000 I-1.772002 J-0.386953
G02 X24.261494 Y11.282045 Z-1.000000 I-2.770177 J-0.248851
G03 X23.942167 Y10.246258 Z-1.000000 I44.443551 J-14.268783
G02 X23.628679 Y9.511096 Z-1.000000 I-3.334439 J0.987452
G02 X23.134224 Y8.891721 Z-1.000000 I-2.223028 J1.267620
G02 X22.435596 Y8.332622 Z-1.000000 I-4.546877 J4.965559
G02 X21.670667 Y7.856777 Z-1.000000 I-4.960999 J7.122153
G02 X20.798054 Y7.400894 Z-1.000000 I-10.386593 J18.818062
G02 X19.890503 Y7.038379 Z-1.000000 I-2.757932 J5.587171
G02 X18.730177 Y6.724529 Z-1.000000 I-4.719780 J15.147544
G02 X17.536864 Y6.525387 Z-1.000000 I-2.229212 J9.683149
G02 X16.844896 Y6.457026 Z-1.000000 I-5.903045 J56.215147
G02 X16.150218 Y6.414874 Z-1.000000 I-1.011565 J10.925659
G02 X14.637437 Y6.576787 Z-1.000000 I-0.162296 J5.631677
G02 X13.212649 Y7.060781 Z-1.000000 I2.114189 J8.562934
G02 X11.775073 Y7.928172 Z-1.000000 I2.603120 J5.939279
G02 X10.682039 Y9.244916 Z-1.000000 I2.615959 J3.283555
G02 X10.527142 Y9.663625 Z-1.000000 I1.481833 J0.786195
G03 X10.411729 Y10.080488 Z-1.000000 I-4.287783 J-0.962711
G01 X10.383353 Y10.024484 Z-1.000000
G02 X10.228909 Y9.972535 Z-1.000000 I-1.010258 J2.747902
G03 X10.079441 Y9.911731 Z-1.000000 I0.263240 J-0.861206
G02 X8.567672 Y9.258598 Z-1.000000 I-5.951161 J11.698636
G02 X6.974609 Y8.826010 Z-1.000000 I-3.498319 J9.733413
G02 X6.362612 Y8.754495 Z-1.000000 I-0.819957 J4.362491
G02 X5.753733 Y8.776727 Z-1.000000 I-0.171405 J3.654592
G02 X5.004157 Y8.931967 Z-1.000000 I0.551115 J4.548359
G02 X4.283455 Y9.191153 Z-1.000000 I1.895805 J6.403130
G02 X3.013753 Y9.964072 Z-1.000000 I2.024167 J4.754527
G02 X2.109774 Y11.113192 Z-1.000000 I2.203450 J2.663516
G02 X1.640783 Y12.633521 Z-1.000000 I4.660686 J2.270228
G02 X1.671453 Y14.267307 Z-1.000000 I4.953794 J0.724187
G02 X2.064278 Y15.720723 Z-1.000000 I9.097203 J-1.678969
G02 X2.834832 Y17.045080 Z-1.000000 I3.993088 J-1.436965
G02 X3.571397 Y17.843675 Z-1.000000 I11.473192 J-9.843036
G02 X4.399943 Y18.528798 Z-1.000000 I3.866222 J-3.832015
G02 X5.719537 Y19.092756 Z-1.000000 I2.138316 J-3.177578
G02 X7.165767 Y19.110488 Z-1.000000 I0.766151 J-3.501286
G02 X7.622333 Y19.011798 Z-1.000000 I-2.014590 J-10.425503
G02 X8.054356 Y18.758039 Z-1.000000 I-0.199736 J-0.834687
G00 Z5.000000

(End cutting path id: path4106)


(Footer)
M5
G00 X0.0000 Y0.0000
M2
(Using default footer. To add your own footer create file "footer" in the output dir.)
(end)