(Header)
(Generated by gcodetools from Inkscape.)
(Using default header. To add your own header create file "header" in the output dir.)
M3
(Header end.)
G21 (All units in mm)

(Start cutting path id: path2049)
(Change tool to Cylindrical cutter)

G00 Z5.000000
G00 X10.773854 Y13.522437

G01 Z-1.000000 F100.0(Penetrate)
G03 X9.160432 Y12.451945 Z-1.000000 I3.188165 J-6.556239 F400.000000
G03 X7.869887 Y11.091139 Z-1.000000 I6.657570 J-7.606183
G03 X7.081992 Y10.055756 Z-1.000000 I33.894737 J-26.610341
G02 X6.286855 Y9.007063 Z-1.000000 I-39.668927 J29.251850
G03 X5.784697 Y7.482183 Z-1.000000 I1.880242 J-1.464305
G03 X6.390649 Y5.717793 Z-1.000000 I3.101330 J0.078854
G01 X6.631090 Y5.477351 Z-1.000000
G03 X8.488085 Y3.866237 Z-1.000000 I9.518727 J9.095672
G03 X10.714117 Y2.778731 Z-1.000000 I4.345037 J6.071914
G03 X12.324661 Y2.613032 Z-1.000000 I1.246736 J4.208045
G03 X13.288783 Y3.140140 Z-1.000000 I-0.112359 J1.350795
G03 X13.843119 Y4.327520 Z-1.000000 I-2.425758 J1.855570
G03 X13.940663 Y5.655069 Z-1.000000 I-4.427189 J0.992653
G02 X14.122333 Y11.491281 Z-1.000000 I27.744784 J2.057291
G03 X14.135555 Y11.660881 Z-1.000000 I-1.442570 J0.197777
G00 Z5.000000

(End cutting path id: path2049)


(Start cutting path id: path2047)
(Change tool to Cylindrical cutter)

G00 Z5.000000
G00 X19.899433 Y20.546765

G01 Z-1.000000 F100.0(Penetrate)
G03 X20.104521 Y20.576387 Z-1.000000 I-0.153449 J1.787224 F400.000000
G03 X20.326553 Y20.652799 Z-1.000000 I-0.180715 J0.885893
G02 X21.814859 Y21.325238 Z-1.000000 I9.791793 J-19.688874
G02 X23.382849 Y21.801990 Z-1.000000 I3.366383 J-8.254844
G02 X24.032052 Y21.752340 Z-1.000000 I0.238166 J-1.155016
G02 X24.586550 Y21.330814 Z-1.000000 I-0.418903 J-1.126520
G02 X25.268039 Y20.046942 Z-1.000000 I-4.264358 J-3.086358
G02 X25.538609 Y18.626220 Z-1.000000 I-4.230634 J-1.541831
G02 X25.563203 Y17.484295 Z-1.000000 I-95.720895 J-2.632795
G02 X25.533382 Y16.345758 Z-1.000000 I-13.640117 J-0.212393
G03 X25.430616 Y14.209547 Z-1.000000 I56.095588 J-3.769152
G02 X25.171973 Y12.085014 Z-1.000000 I-11.630989 J0.337959
G02 X24.527851 Y10.977236 Z-1.000000 I-2.026568 J0.437204
G02 X23.379862 Y10.469874 Z-1.000000 I-1.355732 J1.515127
G02 X22.504258 Y10.495071 Z-1.000000 I-0.342001 J3.341719
G02 X21.633300 Y10.811122 Z-1.000000 I0.392561 J2.439898
G03 X20.423653 Y11.367542 Z-1.000000 I-3.223278 J-5.414264
G02 X19.232618 Y12.015570 Z-1.000000 I1.258464 J3.731514
G03 X19.087154 Y12.047881 Z-1.000000 I-0.106286 J-0.134901
G02 X18.878676 Y12.023784 Z-1.000000 I-0.208477 J0.889767
G00 Z5.000000

(End cutting path id: path2047)


(Start cutting path id: path2045)
(Change tool to Cylindrical cutter)

G00 Z5.000000
G00 X17.437520 Y13.222258

G01 Z-1.000000 F100.0(Penetrate)
G02 X18.388121 Y12.429064 Z-1.000000 I-2.719659 J-4.225586 F400.000000
G03 X19.252033 Y11.555595 Z-1.000000 I16.038674 J14.999213
G03 X20.240174 Y10.708086 Z-1.000000 I8.396058 J8.789462
G02 X21.173325 Y9.750043 Z-1.000000 I-2.855678 J-3.714956
G02 X21.997748 Y8.433107 Z-1.000000 I-9.030021 J-6.569460
G02 X22.390467 Y6.977497 Z-1.000000 I-2.966342 J-1.581092
G02 X22.258698 Y5.582038 Z-1.000000 I-5.341547 J-0.199565
G02 X21.628820 Y4.285597 Z-1.000000 I-3.126111 J0.717593
G02 X19.401990 Y2.510161 Z-1.000000 I-5.102991 J4.116185
G02 X16.713955 Y1.720638 Z-1.000000 I-3.665129 J7.507766
G02 X15.319653 Y2.112462 Z-1.000000 I-0.222074 J1.886471
G02 X14.537287 Y3.432851 Z-1.000000 I1.306891 J1.666350
G02 X14.403661 Y4.728954 Z-1.000000 I10.445588 J1.731864
G03 X14.261750 Y6.018718 Z-1.000000 I-9.481501 J-0.390546
G03 X14.214902 Y6.155880 Z-1.000000 I-0.462735 J-0.081467
G03 X14.135555 Y6.257666 Z-1.000000 I-0.322322 J-0.169443
G00 Z5.000000

(End cutting path id: path2045)


(Start cutting path id: path2043)
(Change tool to Cylindrical cutter)

G00 Z5.000000
G00 X12.154526 Y17.064096

G01 Z-1.000000 F100.0(Penetrate)
G02 X11.028363 Y18.369748 Z-1.000000 I58.785980 J51.843153 F400.000000
G02 X9.965910 Y19.747036 Z-1.000000 I15.231135 J12.847871
G03 X8.321937 Y21.414224 Z-1.000000 I-5.839729 J-4.114278
G03 X6.265201 Y22.574838 Z-1.000000 I-6.095432 J-8.399092
G03 X5.113486 Y22.540378 Z-1.000000 I-0.538303 J-1.272353
G03 X4.231901 Y21.625766 Z-1.000000 I0.836858 J-1.688819
G03 X3.757802 Y20.030156 Z-1.000000 I5.643312 J-2.545023
G03 X3.567327 Y18.385031 Z-1.000000 I21.147852 J-3.282116
G03 X3.455446 Y16.015051 Z-1.000000 I39.820658 J-3.067470
G03 X3.506843 Y13.641911 Z-1.000000 I30.342141 J-0.529978
G03 X3.724902 Y12.429689 Z-1.000000 I5.228032 J0.314715
G03 X4.178138 Y11.305446 Z-1.000000 I6.643242 J2.024725
G03 X5.183228 Y10.618287 Z-1.000000 I1.130887 J0.575481
G03 X6.269681 Y10.594575 Z-1.000000 I0.695942 J6.985284
G03 X6.960052 Y10.709116 Z-1.000000 I-0.174275 J3.188198
G02 X7.651100 Y10.881313 Z-1.000000 I3.213362 J-11.422916
G00 Z5.000000

(End cutting path id: path2043)


(Start cutting path id: path2041)
(Change tool to Cylindrical cutter)

G00 Z5.000000
G00 X16.477247 Y17.064096

G01 Z-1.000000 F100.0(Penetrate)
G02 X17.960084 Y18.674041 Z-1.000000 I10.141511 J-7.852969 F400.000000
G03 X19.479033 Y20.245840 Z-1.000000 I-12.013895 J13.129776
G02 X20.031461 Y20.868994 Z-1.000000 I16.528141 J-14.095808
G03 X20.552807 Y21.511519 Z-1.000000 I-4.846371 J4.465125
G03 X20.816774 Y22.893244 Z-1.000000 I-1.375887 J0.978929
G03 X20.124193 Y24.255689 Z-1.000000 I-3.263161 J-0.801530
G03 X17.714073 Y26.066627 Z-1.000000 I-5.130373 J-4.318605
G03 X14.735913 Y26.666825 Z-1.000000 I-2.838616 J-6.396252
G02 X13.061302 Y26.673362 Z-1.000000 I-0.700355 J35.087784
G03 X11.371971 Y26.496574 Z-1.000000 I-0.179084 J-6.448507
G03 X9.456747 Y25.233423 Z-1.000000 I0.788878 J-3.279651
G03 X8.786104 Y22.827227 Z-1.000000 I2.776332 J-2.070363
G03 X9.055684 Y21.859709 Z-1.000000 I2.871068 J0.278653
G02 X9.448438 Y20.964925 Z-1.000000 I-13.311213 J-6.376371
G02 X9.557256 Y20.686865 Z-1.000000 I-22.705518 J-9.046023
G02 X9.573139 Y20.366061 Z-1.000000 I-0.480263 J-0.184574
G00 Z5.000000

(End cutting path id: path2041)


(Start cutting path id: path2039)
(Change tool to Cylindrical cutter)

G00 Z5.000000
G00 X11.554169 Y16.163560

G01 Z-1.000000 F100.0(Penetrate)
G03 X10.686634 Y14.343335 Z-1.000000 I1.576259 J-1.868108 F400.000000
G03 X11.498165 Y12.565897 Z-1.000000 I2.255469 J-0.044193
G03 X12.258282 Y12.085605 Z-1.000000 I2.195419 J2.632868
G03 X13.173042 Y11.822918 Z-1.000000 I1.312763 J2.847375
G03 X15.177739 Y11.957747 Z-1.000000 I0.660022 J5.157257
G03 X16.965598 Y12.913119 Z-1.000000 I-1.153936 J4.310010
G03 X17.775461 Y14.952808 Z-1.000000 I-1.586879 J1.810698
G03 X16.903620 Y16.651164 Z-1.000000 I-2.568099 J-0.245363
G03 X15.290468 Y17.543119 Z-1.000000 I-2.872498 J-3.290361
G03 X13.541172 Y17.634585 Z-1.000000 I-1.061338 J-3.524727
G03 X12.110514 Y16.786361 Z-1.000000 I0.456855 J-2.401178
G03 X11.380931 Y14.962846 Z-1.000000 I2.502539 J-2.058968
G03 X11.414556 Y14.051746 Z-1.000000 I4.178650 J-0.301954
G03 X11.845387 Y13.154307 Z-1.000000 I1.657518 J0.243586
G03 X12.566568 Y12.695697 Z-1.000000 I1.239212 J1.152362
G03 X13.298490 Y12.527815 Z-1.000000 I1.343618 J4.178377
G03 X14.570949 Y12.502254 Z-1.000000 I0.741914 J5.248355
G03 X15.812673 Y12.928053 Z-1.000000 I-0.288065 J2.863530
G03 X16.685984 Y14.302909 Z-1.000000 I-1.007164 J1.604545
G03 X16.053114 Y15.860395 Z-1.000000 I-1.716840 J0.209702
G03 X13.879325 Y16.537218 Z-1.000000 I-1.945232 J-2.418359
G03 X12.073881 Y15.457170 Z-1.000000 I0.172614 J-2.337592
G03 X11.976778 Y13.976225 Z-1.000000 I1.304204 J-0.829171
G03 X13.296250 Y13.209564 Z-1.000000 I1.209272 J0.562455
G03 X14.024919 Y13.289211 Z-1.000000 I-1.175476 J14.127087
G03 X14.737406 Y13.459713 Z-1.000000 I-0.492075 J3.630179
G03 X15.490234 Y14.167787 Z-1.000000 I-0.417812 J1.198462
G03 X15.576711 Y14.903856 Z-1.000000 I-1.237857 J0.518545
G03 X15.195208 Y15.537628 Z-1.000000 I-0.988400 J-0.163262
G03 X14.316260 Y15.864875 Z-1.000000 I-0.979170 J-1.285940
G03 X13.371296 Y15.664043 Z-1.000000 I-0.111812 J-1.797457
G03 X12.935588 Y15.144297 Z-1.000000 I0.410463 J-0.786597
G03 X12.985118 Y14.606773 Z-1.000000 I0.663647 J-0.209892
G03 X13.415724 Y14.243761 Z-1.000000 I0.669370 J0.357110
G03 X14.078768 Y14.277324 Z-1.000000 I0.288365 J0.869368
G03 X14.430507 Y14.725391 Z-1.000000 I-0.250460 J0.558708
G03 X14.402720 Y15.054966 Z-1.000000 I-0.623598 J0.113381
G03 X14.191559 Y15.246597 Z-1.000000 I-0.287062 J-0.104162
G03 X13.864150 Y15.266981 Z-1.000000 I-0.216674 J-0.840590
G03 X13.535945 Y14.964339 Z-1.000000 I0.049216 J-0.382658
G00 Z5.000000

(End cutting path id: path2039)


(Footer)
M5
G00 X0.0000 Y0.0000
M2
(Using default footer. To add your own footer create file "footer" in the output dir.)
(end)