(Header)
(Generated by gcodetools from Inkscape.)
(Using default header. To add your own header create file "header" in the output dir.)
M3
(Header end.)
G21 (All units in mm)

(Start cutting path id: path902)
(Change tool to Cylindrical cutter)

G00 Z5.000000
G00 X21.786093 Y8.261507

G01 Z-1.000000 F100.0(Penetrate)
G02 X23.059322 Y10.355017 Z-1.000000 I7.604232 J-3.190803 F400.000000
G02 X24.714738 Y12.212094 Z-1.000000 I29.369862 J-24.514213
G02 X26.239273 Y13.647116 Z-1.000000 I13.869640 J-13.207468
G03 X27.780769 Y15.071660 Z-1.000000 I-14.868347 J17.635300
G03 X29.206614 Y17.866513 Z-1.000000 I-3.683456 J3.640318
G03 X28.924070 Y20.855978 Z-1.000000 I-5.800569 J0.959854
G03 X28.074641 Y22.402328 Z-1.000000 I-5.549318 J-2.041833
G03 X26.661954 Y23.643776 Z-1.000000 I-3.803992 J-2.904200
G03 X23.792948 Y24.209957 Z-1.000000 I-2.269236 J-3.946750
G03 X21.315442 Y23.117031 Z-1.000000 I0.638037 J-4.800879
G03 X20.561437 Y22.341105 Z-1.000000 I3.444001 J-4.101014
G03 X19.974223 Y21.223383 Z-1.000000 I2.673873 J-2.117878
G03 X19.903453 Y20.631065 Z-1.000000 I1.636803 J-0.495953
G02 X19.713733 Y20.156066 Z-1.000000 I-0.604126 J-0.034093
G01 X19.713733 Y20.156066 Z-1.000000
G03 X19.623299 Y20.608401 Z-1.000000 I-0.895520 J0.056169
G03 X19.334900 Y21.012026 Z-1.000000 I-1.370446 J-0.674367
G03 X18.006245 Y22.074489 Z-1.000000 I-5.367026 J-5.349695
G03 X16.410335 Y22.739091 Z-1.000000 I-2.763926 J-4.388583
G03 X13.657010 Y22.479876 Z-1.000000 I-0.986693 J-4.271785
G03 X11.653498 Y20.720341 Z-1.000000 I1.783806 J-4.051576
G03 X10.965786 Y18.903164 Z-1.000000 I4.594528 J-2.777522
G03 X10.886990 Y17.008765 Z-1.000000 I6.767175 J-1.230316
G03 X11.940092 Y14.367968 Z-1.000000 I5.068445 J0.490827
G03 X14.219633 Y12.535384 Z-1.000000 I5.030493 J3.923354
G03 X15.917889 Y11.823650 Z-1.000000 I8.502640 J17.906063
G02 X17.620289 Y11.133584 Z-1.000000 I-9.084325 J-24.856054
G02 X19.873401 Y9.923789 Z-1.000000 I-7.070623 J-15.871257
G02 X21.779972 Y8.263482 Z-1.000000 I-4.537950 J-7.135873
G00 Z5.000000

(End cutting path id: path902)


(Start cutting path id: path900)
(Change tool to Cylindrical cutter)

G00 Z5.000000
G00 X22.328837 Y4.551906

G01 Z-1.000000 F100.0(Penetrate)
G02 X23.219132 Y6.536367 Z-1.000000 I20.521731 J-8.014782 F400.000000
G02 X24.369231 Y8.405045 Z-1.000000 I12.140447 J-6.183719
G02 X25.876424 Y10.314242 Z-1.000000 I26.588085 J-19.440131
G02 X27.582171 Y12.061972 Z-1.000000 I13.676268 J-11.641497
G02 X29.269667 Y13.530377 Z-1.000000 I54.422474 J-60.838631
G03 X30.914814 Y15.038080 Z-1.000000 I-18.277610 J21.595225
G03 X31.984871 Y16.239206 Z-1.000000 I-7.962954 J8.171231
G03 X32.866791 Y17.567773 Z-1.000000 I-8.876456 J6.849305
G03 X33.641118 Y19.907591 Z-1.000000 I-5.742532 J3.198438
G03 X33.578208 Y22.315062 Z-1.000000 I-7.629352 J1.005194
G03 X32.958004 Y24.457054 Z-1.000000 I-11.123562 J-2.059989
G03 X31.851355 Y26.458569 Z-1.000000 I-8.549135 J-3.420174
G03 X29.893693 Y28.327509 Z-1.000000 I-6.157501 J-4.490041
G03 X27.373371 Y29.350399 Z-1.000000 I-3.807432 J-5.764836
G03 X24.421313 Y29.225599 Z-1.000000 I-1.210415 J-6.345306
G03 X21.790854 Y27.913043 Z-1.000000 I2.100147 J-7.500951
G03 X20.094891 Y25.740910 Z-1.000000 I3.334984 J-4.352051
G03 X19.268247 Y22.786498 Z-1.000000 I10.376761 J-4.496269
G03 X19.114476 Y23.377456 Z-1.000000 I-1.158037 J0.014156
G03 X18.739105 Y23.871593 Z-1.000000 I-2.102781 J-1.207734
G03 X17.476590 Y25.069720 Z-1.000000 I-18.373171 J-18.096318
G03 X16.018580 Y26.079313 Z-1.000000 I-4.920861 J-5.548898
G03 X10.958452 Y26.716149 Z-1.000000 I-3.376946 J-6.410676
G03 X6.843610 Y23.678014 Z-1.000000 I1.520019 J-6.364344
G03 X6.114854 Y21.998412 Z-1.000000 I6.385114 J-3.768309
G03 X5.755400 Y20.202814 Z-1.000000 I9.995077 J-2.934659
G03 X5.825736 Y17.450529 Z-1.000000 I10.289335 J-1.114093
G03 X6.707583 Y14.849111 Z-1.000000 I8.116112 J1.301082
G03 X8.428837 Y12.784147 Z-1.000000 I5.942338 J3.203386
G03 X10.725799 Y11.318603 Z-1.000000 I7.934675 J9.903295
G03 X13.013694 Y10.334514 Z-1.000000 I10.330160 J20.864860
G02 X15.337769 Y9.439440 Z-1.000000 I-28.813638 J-78.279904
G02 X18.173216 Y8.050741 Z-1.000000 I-7.896522 J-19.712193
G02 X20.726448 Y6.242757 Z-1.000000 I-9.170189 J-15.656949
G02 X21.588974 Y5.451744 Z-1.000000 I-9.446264 J-11.166030
G02 X22.330198 Y4.551906 Z-1.000000 I-4.133696 J-4.160252
G00 Z5.000000

(End cutting path id: path900)


(Start cutting path id: path898)
(Change tool to Cylindrical cutter)

G00 Z5.000000
G00 X22.613132 Y2.773483

G01 Z-1.000000 F100.0(Penetrate)
G02 X23.586101 Y4.673470 Z-1.000000 I4.196007 J-0.949625 F400.000000
G03 X24.901774 Y6.390904 Z-1.000000 I-11.541218 J10.204034
G02 X26.340518 Y8.353828 Z-1.000000 I20.802061 J-13.738341
G02 X27.944681 Y10.209805 Z-1.000000 I30.334320 J-24.597396
G02 X30.349389 Y12.473277 Z-1.000000 I16.896114 J-15.541279
G03 X32.808980 Y14.666067 Z-1.000000 I-23.144970 J28.436884
G03 X34.667268 Y16.669944 Z-1.000000 I-19.183633 J19.653447
G03 X36.117138 Y18.986034 Z-1.000000 I-7.575137 J6.353884
G03 X36.762973 Y21.078183 Z-1.000000 I-8.246588 J3.691432
G03 X36.820394 Y23.216454 Z-1.000000 I-6.993132 J1.257699
G03 X35.829264 Y27.001635 Z-1.000000 I-14.731749 J-1.835078
G03 X33.623777 Y30.351214 Z-1.000000 I-9.626150 J-3.937338
G03 X31.657115 Y31.842413 Z-1.000000 I-6.077483 J-5.972800
G03 X29.265496 Y32.714323 Z-1.000000 I-4.007485 J-7.276373
G03 X25.492010 Y32.587080 Z-1.000000 I-1.613263 J-8.173847
G03 X22.173768 Y30.930633 Z-1.000000 I2.411516 J-8.982644
G03 X20.062079 Y28.714481 Z-1.000000 I6.482284 J-8.290873
G03 X18.909138 Y26.118160 Z-1.000000 I5.914030 J-4.180381
G03 X16.284356 Y28.369848 Z-1.000000 I-7.910079 J-6.565050
G03 X13.000157 Y29.805375 Z-1.000000 I-7.221255 J-12.046230
G03 X9.180031 Y30.012018 Z-1.000000 I-2.353244 J-8.089553
G03 X5.722753 Y28.527360 Z-1.000000 I1.433052 J-8.104860
G03 X3.455944 Y25.899762 Z-1.000000 I4.652295 J-6.305080
G03 X2.364265 Y22.705511 Z-1.000000 I9.400955 J-4.996577
G03 X2.198074 Y21.461911 Z-1.000000 I16.911111 J-2.892865
G03 X2.180630 Y20.214008 Z-1.000000 I7.555553 J-0.729688
G03 X2.634932 Y17.310182 Z-1.000000 I16.787761 J1.138984
G03 X3.919045 Y14.571911 Z-1.000000 I7.542801 J1.866972
G03 X5.633244 Y12.775036 Z-1.000000 I7.876530 J5.798017
G03 X7.708736 Y11.378520 Z-1.000000 I8.830694 J10.883571
G03 X10.776969 Y9.969968 Z-1.000000 I11.200536 J20.351982
G02 X13.927176 Y8.756647 Z-1.000000 I-59.098102 J-158.135552
G02 X17.007651 Y7.298005 Z-1.000000 I-9.367185 J-23.764471
G02 X19.844318 Y5.454615 Z-1.000000 I-12.263153 J-21.975198
G02 X21.331838 Y4.216619 Z-1.000000 I-11.633546 J-15.491004
G02 X22.610412 Y2.776117 Z-1.000000 I-6.481163 J-7.040286
G00 Z5.000000

(End cutting path id: path898)


(Footer)
M5
G00 X0.0000 Y0.0000
M2
(Using default footer. To add your own footer create file "footer" in the output dir.)
(end)