(Header)
(Generated by gcodetools from Inkscape.)
(Using default header. To add your own header create file "header" in the output dir.)
M3
(Header end.)
G21 (All units in mm)

(Start cutting path id: path12)
(Change tool to Cylindrical cutter)

G00 Z5.000000
G00 X33.708755 Y56.963532

G01 Z-1.000000 F100.0(Penetrate)
G01 X14.934259 Y46.722897 Z-1.000000 F400.000000
G00 Z5.000000

(End cutting path id: path12)


(Start cutting path id: path10)
(Change tool to Cylindrical cutter)

G00 Z5.000000
G00 X7.680476 Y77.444802

G01 Z-1.000000 F100.0(Penetrate)
G01 X48.002975 Y64.003969 Z-1.000000 F400.000000
G00 Z5.000000

(End cutting path id: path10)


(Footer)
M5
G00 X0.0000 Y0.0000
M2
(Using default footer. To add your own footer create file "footer" in the output dir.)
(end)