(Header)
(Generated by gcodetools from Inkscape.)
(Using default header. To add your own header create file "header" in the output dir.)
M3
(Header end.)
G21 (All units in mm)

(Start cutting path id: path1459)
(Change tool to Cylindrical cutter)

G00 Z5.000000
G00 X41.540721 Y11.621643

G01 Z-1.000000 F100.0(Penetrate)
G01 X28.972798 Y19.480189 Z-1.000000 F400.000000
G01 X15.374172 Y13.582165 Z-1.000000
G01 X18.964391 Y27.963394 Z-1.000000
G01 X9.152831 Y39.073867 Z-1.000000
G01 X23.939630 Y40.103411 Z-1.000000
G01 X31.474379 Y52.868088 Z-1.000000
G01 X37.022905 Y39.123149 Z-1.000000
G01 X51.491199 Y35.901675 Z-1.000000
G01 X40.133575 Y26.377296 Z-1.000000
G01 X41.540721 Y11.621643 Z-1.000000
G00 Z5.000000

(End cutting path id: path1459)


(Footer)
M5
G00 X0.0000 Y0.0000
M2
(Using default footer. To add your own footer create file "footer" in the output dir.)
(end)