(Header)
(Generated by gcodetools from Inkscape.)
(Using default header. To add your own header create file "header" in the output dir.)
M3
(Header end.)
G21 (All units in mm)

(Start cutting path id: path1949)
(Change tool to Cylindrical cutter)

G00 Z5.000000
G00 X13.039565 Y14.906789

G01 Z-1.000000 F100.0(Penetrate)
G01 X13.819124 Y13.690081 Z-1.000000 F400.000000
G03 X14.270072 Y13.127606 Z-1.000000 I2.835628 J1.811377
G03 X14.909661 Y12.800294 Z-1.000000 I0.822607 J0.818872
G03 X14.193191 Y14.707101 Z-1.000000 I-2.665127 J0.086605
G03 X12.233563 Y15.661609 Z-1.000000 I-2.224271 J-2.077647
G02 X12.724619 Y14.688107 Z-1.000000 I-1.615887 J-1.425691
G03 X13.051200 Y13.630095 Z-1.000000 I6.160226 J1.322097
G03 X13.803550 Y12.759834 Z-1.000000 I1.665533 J0.679532
G03 X14.910718 Y12.717314 Z-1.000000 I0.593054 J1.006492
G00 Z5.000000

(End cutting path id: path1949)


(Start cutting path id: path1947)
(Change tool to Cylindrical cutter)

G00 Z5.000000
G00 X16.490991 Y10.209914

G01 Z-1.000000 F100.0(Penetrate)
G03 X17.123526 Y10.617950 Z-1.000000 I-0.380366 J1.283935 F400.000000
G03 X17.567777 Y11.225671 Z-1.000000 I-3.486368 J3.014812
G02 X18.091983 Y11.803290 Z-1.000000 I1.784527 J-1.092835
G02 X18.783127 Y12.233430 Z-1.000000 I2.737791 J-3.628722
G00 Z5.000000

(End cutting path id: path1947)


(Start cutting path id: path1945)
(Change tool to Cylindrical cutter)

G00 Z5.000000
G00 X16.483587 Y10.072947

G01 Z-1.000000 F100.0(Penetrate)
G02 X16.539237 Y10.864817 Z-1.000000 I1.160736 J0.316318 F400.000000
G02 X17.028326 Y11.545594 Z-1.000000 I1.791324 J-0.770860
G02 X17.721244 Y12.013853 Z-1.000000 I2.045795 J-2.280506
G02 X18.509171 Y12.370397 Z-1.000000 I5.889009 J-11.965242
G01 X18.781012 Y12.233430 Z-1.000000
G02 X18.786867 Y11.291664 Z-1.000000 I-1.727045 J-0.481638
G02 X18.252139 Y10.497845 Z-1.000000 I-1.413929 J0.375433
G02 X17.395039 Y10.029231 Z-1.000000 I-2.039905 J2.712876
G02 X16.483587 Y10.072947 Z-1.000000 I-0.404579 J1.088230
G01 X16.483587 Y10.072947 Z-1.000000
G00 Z5.000000

(End cutting path id: path1945)


(Start cutting path id: path1943)
(Change tool to Cylindrical cutter)

G00 Z5.000000
G00 X14.878986 Y0.675197

G01 Z-1.000000 F100.0(Penetrate)
G03 X15.590708 Y4.615298 Z-1.000000 I-18.923563 J5.452597 F400.000000
G03 X15.840477 Y10.681801 Z-1.000000 I-84.735139 J6.527103
G03 X15.671161 Y15.083610 Z-1.000000 I-52.040418 J0.202413
G03 X15.129672 Y19.461699 Z-1.000000 I-52.021543 J-4.211575
G00 Z5.000000

(End cutting path id: path1943)


(Start cutting path id: path1941)
(Change tool to Cylindrical cutter)

G00 Z5.000000
G00 X14.900141 Y32.019692

G01 Z-1.000000 F100.0(Penetrate)
G03 X10.820841 Y33.802225 Z-1.000000 I-7.667589 J-11.988185 F400.000000
G03 X6.400092 Y33.804264 Z-1.000000 I-2.214295 J-8.497763
G00 Z5.000000

(End cutting path id: path1941)


(Start cutting path id: path1939)
(Change tool to Cylindrical cutter)

G00 Z5.000000
G00 X9.815555 Y38.685096

G01 Z-1.000000 F100.0(Penetrate)
G02 X10.992675 Y37.953428 Z-1.000000 I-1.144885 J-3.154630 F400.000000
G02 X11.931047 Y36.942513 Z-1.000000 I-8.165511 J-8.520534
G02 X13.507742 Y34.531630 Z-1.000000 I-10.286420 J-8.448236
G03 X14.903314 Y32.019692 Z-1.000000 I35.227595 J17.927956
G00 Z5.000000

(End cutting path id: path1939)


(Start cutting path id: path1937)
(Change tool to Cylindrical cutter)

G00 Z5.000000
G00 X8.170759 Y27.841692

G01 Z-1.000000 F100.0(Penetrate)
G02 X9.015064 Y29.439027 Z-1.000000 I4.656869 J-1.439679 F400.000000
G02 X10.426932 Y30.674014 Z-1.000000 I4.109494 J-3.273544
G02 X12.572099 Y31.747260 Z-1.000000 I8.495689 J-14.300417
G02 X14.902256 Y32.019692 Z-1.000000 I1.647228 J-3.987692
G03 X13.398749 Y32.494668 Z-1.000000 I-1.382173 J-1.758066
G02 X11.677188 Y32.449589 Z-1.000000 I-1.662573 J30.597934
G03 X10.077636 Y32.361712 Z-1.000000 I-0.043801 J-13.804407
G03 X8.503949 Y32.089675 Z-1.000000 I1.546176 J-13.632116
G03 X6.584780 Y31.392351 Z-1.000000 I1.877126 J-8.155833
G03 X5.234456 Y30.076157 Z-1.000000 I1.438900 J-2.826980
G00 Z5.000000

(End cutting path id: path1937)


(Start cutting path id: path1935)
(Change tool to Cylindrical cutter)

G00 Z5.000000
G00 X14.900141 Y32.019692

G01 Z-1.000000 F100.0(Penetrate)
G03 X13.378515 Y30.267020 Z-1.000000 I1.960325 J-3.238760 F400.000000
G03 X12.573099 Y28.060640 Z-1.000000 I20.243355 J-8.639818
G03 X12.270300 Y26.192740 Z-1.000000 I6.677639 J-2.040982
G03 X12.376358 Y24.300540 Z-1.000000 I11.739322 J-0.291081
G00 Z5.000000

(End cutting path id: path1935)


(Start cutting path id: path1933)
(Change tool to Cylindrical cutter)

G00 Z5.000000
G00 X14.900141 Y32.019692

G01 Z-1.000000 F100.0(Penetrate)
G02 X17.256654 Y27.471760 Z-1.000000 I-9.187188 J-7.644825 F400.000000
G02 X17.361516 Y22.481976 Z-1.000000 I-10.094609 J-2.708137
G00 Z5.000000

(End cutting path id: path1933)


(Start cutting path id: path1931)
(Change tool to Cylindrical cutter)

G00 Z5.000000
G00 X14.900141 Y32.019692

G01 Z-1.000000 F100.0(Penetrate)
G02 X17.935127 Y29.643727 Z-1.000000 I-4.120789 J-8.390156 F400.000000
G02 X19.419890 Y26.333053 Z-1.000000 I-5.072280 J-4.263083
G00 Z5.000000

(End cutting path id: path1931)


(Start cutting path id: path1929)
(Change tool to Cylindrical cutter)

G00 Z5.000000
G00 X21.298448 Y30.706006

G01 Z-1.000000 F100.0(Penetrate)
G03 X19.829281 Y31.389897 Z-1.000000 I-4.128799 J-6.949673 F400.000000
G03 X18.230984 Y31.774750 Z-1.000000 I-2.737116 J-7.855955
G02 X16.490074 Y32.188748 Z-1.000000 I1.119417 J8.574640
G03 X14.896968 Y32.019692 Z-1.000000 I-0.618321 J-1.764099
G02 X17.787891 Y30.866527 Z-1.000000 I-4.437595 J-15.325101
G02 X20.448020 Y29.309341 Z-1.000000 I-13.527840 J-26.160226
G02 X22.104116 Y27.771983 Z-1.000000 I-3.752113 J-5.702592
G02 X22.927377 Y25.804180 Z-1.000000 I-3.286248 J-2.530966
G00 Z5.000000

(End cutting path id: path1929)


(Start cutting path id: path1927)
(Change tool to Cylindrical cutter)

G00 Z5.000000
G00 X14.900141 Y32.019692

G01 Z-1.000000 F100.0(Penetrate)
G02 X19.150985 Y34.477939 Z-1.000000 I7.036676 J-7.263501 F400.000000
G02 X24.195615 Y34.687053 Z-1.000000 I2.953964 J-10.308482
G00 Z5.000000

(End cutting path id: path1927)


(Start cutting path id: path1925)
(Change tool to Cylindrical cutter)

G00 Z5.000000
G00 X21.939442 Y37.452391

G01 Z-1.000000 F100.0(Penetrate)
G03 X19.857863 Y36.911089 Z-1.000000 I0.525746 J-6.294768 F400.000000
G03 X18.105112 Y35.768794 Z-1.000000 I2.849965 J-6.288890
G02 X16.021413 Y34.283611 Z-1.000000 I-7.692532 J8.588261
G03 X15.434303 Y32.019692 Z-1.000000 I0.786177 J-1.411970
G03 X16.574324 Y31.788783 Z-1.000000 I0.678286 J0.419109
G02 X19.229496 Y32.527570 Z-1.000000 I2.351434 J-3.310276
G02 X21.730419 Y31.921848 Z-1.000000 I-0.586220 J-7.886199
G02 X23.841270 Y30.572038 Z-1.000000 I-2.926836 J-6.902421
G00 Z5.000000

(End cutting path id: path1925)


(Start cutting path id: path1923)
(Change tool to Cylindrical cutter)

G00 Z5.000000
G00 X14.900141 Y32.019692

G01 Z-1.000000 F100.0(Penetrate)
G03 X14.632554 Y36.505854 Z-1.000000 I-12.389091 J1.512089 F400.000000
G03 X12.431361 Y40.457671 Z-1.000000 I-8.307160 J-2.038205
G00 Z5.000000

(End cutting path id: path1923)


(Start cutting path id: path1921)
(Change tool to Cylindrical cutter)

G00 Z5.000000
G00 X22.563512 Y21.719158

G01 Z-1.000000 F100.0(Penetrate)
G02 X20.037992 Y20.994195 Z-1.000000 I-14.108375 J44.387155 F400.000000
G02 X17.450367 Y20.494451 Z-1.000000 I-5.415552 J21.092123
G02 X15.519143 Y20.687000 Z-1.000000 I-0.553702 J4.227642
G03 X13.368524 Y20.919350 Z-1.000000 I-1.591534 J-4.661986
G02 X10.811306 Y22.129668 Z-1.000000 I-0.306812 J2.658419
G03 X8.432023 Y24.226558 Z-1.000000 I-4.882639 J-3.141899
G02 X5.091488 Y26.882574 Z-1.000000 I4.111826 J8.600284
G02 X2.508644 Y30.267111 Z-1.000000 I77.606422 J61.901639
G02 X2.138698 Y30.816161 Z-1.000000 I6.830375 J5.001414
G02 X1.886689 Y31.408838 Z-1.000000 I1.811615 J1.120224
G02 X1.863931 Y32.049467 Z-1.000000 I1.457040 J0.372479
G02 X2.168049 Y32.617549 Z-1.000000 I1.031932 J-0.186994
G03 X5.222647 Y36.405434 Z-1.000000 I-12.926530 J13.549689
G02 X8.284996 Y40.186736 Z-1.000000 I15.729543 J-9.608128
G03 X9.385588 Y41.258858 Z-1.000000 I-35.013275 J37.044028
G03 X10.232307 Y42.467190 Z-1.000000 I-3.050183 J3.038193
G00 Z5.000000

(End cutting path id: path1921)


(Start cutting path id: path1919)
(Change tool to Cylindrical cutter)

G00 Z5.000000
G00 X10.228076 Y42.467190

G01 Z-1.000000 F100.0(Penetrate)
G03 X16.893153 Y41.206000 Z-1.000000 I30.547291 J143.192681 F400.000000
G03 X23.650875 Y40.594638 Z-1.000000 I7.523362 J45.505780
G03 X25.389977 Y38.354888 Z-1.000000 I2968.169030 J2302.884262
G02 X27.129803 Y36.112712 Z-1.000000 I-1600.644564 J-1243.817541
G02 X28.525061 Y34.154145 Z-1.000000 I-23.276449 J-18.058105
G02 X29.372225 Y32.001696 Z-1.000000 I-4.799565 J-3.131959
G02 X28.296163 Y30.387770 Z-1.000000 I-42.686402 J27.294835
G03 X27.219711 Y28.772469 Z-1.000000 I41.154976 J-28.592397
G03 X26.670965 Y27.870675 Z-1.000000 I19.080376 J-12.228352
G03 X26.257162 Y26.918913 Z-1.000000 I3.977694 J-2.295242
G03 X25.993487 Y25.447460 Z-1.000000 I6.036886 J-1.841123
G02 X25.616168 Y24.011609 Z-1.000000 I-3.760204 J0.220621
G02 X24.229065 Y22.543848 Z-1.000000 I-3.045328 J1.488658
G02 X22.256766 Y21.590189 Z-1.000000 I-8.821241 J15.727227
G00 Z5.000000

(End cutting path id: path1919)


(Footer)
M5
G00 X0.0000 Y0.0000
M2
(Using default footer. To add your own footer create file "footer" in the output dir.)
(end)