(Header)
(Generated by gcodetools from Inkscape.)
(Using default header. To add your own header create file "header" in the output dir.)
M3
(Header end.)
G21 (All units in mm)

(Start cutting path id: path3982)
(Change tool to Cylindrical cutter)

G00 Z5.000000
G00 X20.077799 Y36.568320

G01 Z-1.000000 F100.0(Penetrate)
G02 X19.503983 Y36.083139 Z-1.000000 I-1.321926 J0.981508 F400.000000
G02 X18.785397 Y35.909108 Z-1.000000 I-0.724245 J1.419902
G02 X18.084674 Y36.029147 Z-1.000000 I0.045842 J2.372847
G02 X17.445397 Y36.353175 Z-1.000000 I0.758747 J2.289567
G02 X16.727630 Y37.045778 Z-1.000000 I1.518233 J2.291616
G02 X16.429273 Y38.048897 Z-1.000000 I1.307013 J0.934674
G02 X16.558973 Y38.647249 Z-1.000000 I1.829272 J-0.083284
G02 X16.816269 Y39.214706 Z-1.000000 I6.533348 J-2.620286
G02 X17.183791 Y39.897602 Z-1.000000 I11.032858 J-5.497335
G02 X17.631652 Y40.515113 Z-1.000000 I3.231615 J-1.872620
G02 X18.221012 Y41.009632 Z-1.000000 I2.013213 J-1.800864
G02 X18.893011 Y41.234735 Z-1.000000 I0.812416 J-1.309691
G02 X19.408235 Y41.194636 Z-1.000000 I0.093479 J-2.128955
G02 X19.900857 Y41.031248 Z-1.000000 I-0.425390 J-2.106907
G02 X21.007961 Y40.433763 Z-1.000000 I-2.296217 J-5.579192
G02 X21.976564 Y39.613201 Z-1.000000 I-3.465352 J-5.072507
G01 X22.160749 Y39.401236 Z-1.000000
G02 X22.374379 Y39.103008 Z-1.000000 I-4.181368 J-3.220871
G02 X22.567406 Y38.789716 Z-1.000000 I-4.422220 J-2.940746
G02 X22.898375 Y38.024597 Z-1.000000 I-4.455219 J-2.381348
G02 X23.100301 Y37.211635 Z-1.000000 I-4.832570 J-1.631891
G02 X23.111460 Y36.314491 Z-1.000000 I-3.220782 J-0.488699
G02 X22.877830 Y35.451263 Z-1.000000 I-3.210881 J0.405783
G00 Z5.000000

(End cutting path id: path3982)


(Start cutting path id: path3980)
(Change tool to Cylindrical cutter)

G00 Z5.000000
G00 X21.337089 Y36.688080

G01 Z-1.000000 F100.0(Penetrate)
G03 X21.717858 Y37.305660 Z-1.000000 I-2.007399 J1.663838 F400.000000
G03 X21.916548 Y38.010744 Z-1.000000 I-2.434586 J1.066594
G03 X21.862233 Y38.738719 Z-1.000000 I-1.807518 J0.231153
G03 X21.528517 Y39.380039 Z-1.000000 I-1.719512 J-0.487275
G03 X20.853487 Y39.861467 Z-1.000000 I-1.351376 J-1.180864
G03 X20.055034 Y40.138875 Z-1.000000 I-3.062446 J-7.526743
G01 X19.769444 Y40.191866 Z-1.000000
G03 X18.774288 Y40.019120 Z-1.000000 I-0.137727 J-2.159403
G03 X17.828254 Y39.221065 Z-1.000000 I0.848161 J-1.965184
G03 X17.477070 Y37.894936 Z-1.000000 I1.853265 J-1.200344
G03 X18.059003 Y36.701858 Z-1.000000 I1.714566 J0.097833
G03 X19.304543 Y36.290148 Z-1.000000 I1.107093 J1.259357
G03 X20.501011 Y36.913823 Z-1.000000 I-0.143770 J1.735307
G03 X20.835349 Y37.595382 Z-1.000000 I-1.290499 J1.055836
G03 X20.701753 Y38.185615 Z-1.000000 I-0.679310 J0.156478
G02 X20.272344 Y38.745369 Z-1.000000 I13.919646 J11.122887
G03 X19.492131 Y39.069510 Z-1.000000 I-0.658980 J-0.485112
G03 X19.081062 Y38.939107 Z-1.000000 I0.194845 J-1.327318
G03 X18.726416 Y38.550195 Z-1.000000 I0.334890 J-0.661539
G03 X18.679762 Y38.059201 Z-1.000000 I0.820799 J-0.325706
G03 X18.890941 Y37.669480 Z-1.000000 I0.717496 J0.136715
G03 X19.323703 Y37.418460 Z-1.000000 I0.729622 J0.759327
G03 X19.713567 Y37.416181 Z-1.000000 I0.198896 J0.676930
G03 X19.830600 Y37.690960 Z-1.000000 I-0.494095 J0.372756
G03 X19.805660 Y37.990607 Z-1.000000 I-0.619418 J0.099306
G03 X19.632642 Y38.185941 Z-1.000000 I-0.421202 J-0.198788
G03 X19.386586 Y38.254504 Z-1.000000 I-0.237810 J-0.377647
G00 Z5.000000

(End cutting path id: path3980)


(Start cutting path id: path3978)
(Change tool to Cylindrical cutter)

G00 Z5.000000
G00 X5.586135 Y13.216109

G01 Z-1.000000 F100.0(Penetrate)
G02 X5.086180 Y14.169213 Z-1.000000 I2.866554 J2.111345 F400.000000
G02 X4.890784 Y15.237197 Z-1.000000 I3.425823 J1.178648
G02 X4.926437 Y15.394760 Z-1.000000 I0.325310 J0.009205
G02 X5.032113 Y15.513131 Z-1.000000 I0.279465 J-0.143138
G02 X5.181509 Y15.563596 Z-1.000000 I0.169254 J-0.254685
G02 X5.335726 Y15.532889 Z-1.000000 I0.019746 J-0.303433
G02 X5.669423 Y15.346354 Z-1.000000 I-3.123420 J-5.979308
G02 X5.992792 Y15.140753 Z-1.000000 I-3.473443 J-5.820130
G03 X6.520381 Y15.162050 Z-1.000000 I0.249315 J0.369356
G03 X6.653997 Y15.675965 Z-1.000000 I-0.276880 J0.346315
G03 X6.567202 Y15.850466 Z-1.000000 I-1.126944 J-0.451694
G03 X6.454290 Y16.007691 Z-1.000000 I-1.026045 J-0.617703
G03 X5.872071 Y16.576570 Z-1.000000 I-3.211178 J-2.704108
G02 X5.438166 Y17.287961 Z-1.000000 I0.768496 J0.956758
G02 X5.482481 Y17.712145 Z-1.000000 I0.621547 J0.149473
G02 X5.779633 Y18.005463 Z-1.000000 I0.553239 J-0.263292
G02 X6.128838 Y17.992903 Z-1.000000 I0.160822 J-0.389401
G02 X6.370475 Y17.834831 Z-1.000000 I-0.559046 J-1.118317
G01 X7.392808 Y16.992270 Z-1.000000
G03 X7.691037 Y16.871963 Z-1.000000 I0.335469 J0.401803
G03 X8.002138 Y16.948810 Z-1.000000 I0.036978 J0.518447
G03 X8.212814 Y17.194388 Z-1.000000 I-0.283045 J0.455973
G03 X8.246476 Y17.522183 Z-1.000000 I-0.512061 J0.218210
G03 X8.148704 Y17.841577 Z-1.000000 I-1.782974 J-0.371132
G03 X7.995032 Y18.135822 Z-1.000000 I-1.664405 J-0.682004
G03 X7.420790 Y18.807156 Z-1.000000 I-2.776790 J-1.793932
G02 X6.806105 Y19.443648 Z-1.000000 I4.005850 J4.483666
G02 X6.364526 Y20.228726 Z-1.000000 I1.912654 J1.592524
G02 X6.400483 Y21.086378 Z-1.000000 I1.116080 J0.382789
G02 X6.575518 Y21.334957 Z-1.000000 I0.704363 J-0.310060
G02 X6.838182 Y21.437181 Z-1.000000 I0.256630 J-0.270841
G02 X6.989166 Y21.402603 Z-1.000000 I-0.061496 J-0.615445
G02 X7.127912 Y21.331198 Z-1.000000 I-0.215646 J-0.589521
G02 X7.820348 Y20.823106 Z-1.000000 I-1.982600 J-3.427799
G02 X8.393410 Y20.171748 Z-1.000000 I-2.729584 J-2.979244
G02 X8.638155 Y19.818940 Z-1.000000 I-18.776895 J-13.286936
G03 X8.924236 Y19.514656 Z-1.000000 I1.101518 J0.748998
G03 X9.311970 Y19.351043 Z-1.000000 I0.502008 J0.648433
G03 X9.698229 Y19.462725 Z-1.000000 I0.068511 J0.486843
G03 X9.878747 Y19.829124 Z-1.000000 I-0.330910 J0.390702
G03 X9.784113 Y20.256534 Z-1.000000 I-0.833605 J0.039612
G03 X9.523096 Y20.592181 Z-1.000000 I-1.065015 J-0.558901
G03 X9.199480 Y20.873353 Z-1.000000 I-8.526519 J-9.486798
G02 X8.201139 Y22.034140 Z-1.000000 I2.948327 J3.545433
G02 X8.032283 Y23.458269 Z-1.000000 I1.486823 J0.898365
G02 X8.190102 Y23.776221 Z-1.000000 I0.843645 J-0.220609
G02 X8.457565 Y23.999841 Z-1.000000 I0.661558 J-0.519505
G02 X8.823354 Y24.041595 Z-1.000000 I0.268928 J-0.732812
G02 X9.169472 Y23.910815 Z-1.000000 I-0.097830 J-0.782317
G02 X9.822057 Y23.124992 Z-1.000000 I-0.829286 J-1.352559
G03 X10.259063 Y22.125008 Z-1.000000 I10.912979 J4.173629
G03 X11.021812 Y21.288479 Z-1.000000 I1.831515 J0.903976
G03 X12.007789 Y21.395848 Z-1.000000 I0.423697 J0.689998
G03 X12.209425 Y21.714339 Z-1.000000 I-0.636857 J0.626266
G03 X12.263372 Y22.092153 Z-1.000000 I-0.859498 J0.315484
G03 X11.824800 Y23.105240 Z-1.000000 I-1.575638 J-0.080631
G02 X11.138600 Y23.855704 Z-1.000000 I14.501011 J13.948200
G03 X10.797170 Y24.216750 Z-1.000000 I-3.599572 J-3.062040
G03 X10.421519 Y24.538232 Z-1.000000 I-3.225630 J-3.388928
G02 X10.078875 Y24.857270 Z-1.000000 I0.962353 J1.377077
G02 X9.833781 Y25.263154 Z-1.000000 I1.338472 J1.085181
G02 X10.187115 Y26.271862 Z-1.000000 I0.776507 J0.294241
G02 X11.054785 Y26.334638 Z-1.000000 I0.496790 J-0.838761
G02 X11.664356 Y25.879885 Z-1.000000 I-0.582089 J-1.416182
G02 X12.111264 Y25.223940 Z-1.000000 I-3.827083 J-3.087683
G03 X12.507756 Y24.538547 Z-1.000000 I48.014020 J27.318148
G03 X13.011496 Y23.952148 Z-1.000000 I1.880681 J1.106015
G03 X13.196604 Y23.838535 Z-1.000000 I0.504224 J0.613919
G03 X13.399527 Y23.834508 Z-1.000000 I0.106312 J0.242373
G03 X13.573013 Y24.092410 Z-1.000000 I-0.100777 J0.255092
G03 X13.509210 Y24.470404 Z-1.000000 I-1.226025 J-0.012563
G03 X13.072029 Y25.623090 Z-1.000000 I-15.402514 J-5.182492
G03 X12.549998 Y26.736312 Z-1.000000 I-14.886228 J-6.301692
G02 X12.273238 Y27.296644 Z-1.000000 I16.735657 J8.614610
G02 X12.097812 Y27.894702 Z-1.000000 I1.803106 J0.853654
G02 X12.243369 Y28.657810 Z-1.000000 I1.235560 J0.159763
G02 X12.983558 Y29.065810 Z-1.000000 I0.694413 J-0.384376
G02 X13.373606 Y28.951180 Z-1.000000 I-0.087167 J-1.017521
G02 X13.693396 Y28.690632 Z-1.000000 I-0.491289 J-0.929519
G02 X14.129454 Y27.774033 Z-1.000000 I-1.461307 J-1.257218
G03 X14.346323 Y26.792483 Z-1.000000 I12.426228 J2.230784
G03 X14.687203 Y26.017679 Z-1.000000 I2.604387 J0.683431
G03 X15.320022 Y25.556725 Z-1.000000 I0.912502 J0.587867
G03 X15.518463 Y25.536823 Z-1.000000 I0.137591 J0.372631
G03 X15.702879 Y25.616076 Z-1.000000 I-0.061639 J0.397620
G03 X15.785778 Y25.755803 Z-1.000000 I-0.356156 J0.305760
G03 X15.816701 Y25.917066 Z-1.000000 I-0.448478 J0.169596
G03 X15.209796 Y28.317389 Z-1.000000 I-3.575590 J0.372824
G02 X14.845072 Y30.666148 Z-1.000000 I2.279223 J1.556623
G02 X14.928631 Y30.874974 Z-1.000000 I0.721032 J-0.167381
G02 X15.069612 Y31.046625 Z-1.000000 I0.621714 J-0.366907
G02 X15.479759 Y31.135276 Z-1.000000 I0.297355 J-0.382617
G02 X15.878786 Y30.926865 Z-1.000000 I-0.214792 J-0.897441
G02 X16.357881 Y30.149523 Z-1.000000 I-1.046001 J-1.180986
G02 X16.603111 Y29.217365 Z-1.000000 I-313.429535 J-82.954642
G03 X16.793626 Y28.698483 Z-1.000000 I2.401368 J0.587283
G03 X17.092547 Y28.239146 Z-1.000000 I2.173300 J1.087375
G03 X17.591488 Y28.130919 Z-1.000000 I0.324522 J0.291887
G03 X17.879991 Y28.576170 Z-1.000000 I-0.192034 J0.440525
G03 X17.740455 Y29.466963 Z-1.000000 I-3.123234 J-0.032906
G02 X17.491960 Y30.377875 Z-1.000000 I13.303247 J4.118448
G02 X17.349921 Y31.793315 Z-1.000000 I5.201551 J1.236824
G02 X17.586123 Y33.194893 Z-1.000000 I5.334526 J-0.178313
G02 X17.839981 Y33.649809 Z-1.000000 I1.197028 J-0.369692
G02 X18.242154 Y33.724806 Z-1.000000 I0.248613 J-0.217361
G02 X18.371709 Y33.605359 Z-1.000000 I-0.319855 J-0.476906
G02 X18.460486 Y33.450311 Z-1.000000 I-0.461987 J-0.367463
G02 X19.041984 Y32.086857 Z-1.000000 I-11.346973 J-5.645090
G02 X19.462123 Y30.659789 Z-1.000000 I-12.014750 J-4.312605
G03 X19.727997 Y30.464100 Z-1.000000 I0.247410 J0.057685
G03 X19.954664 Y30.696883 Z-1.000000 I-0.017786 J0.244065
G03 X19.921445 Y31.153800 Z-1.000000 I-2.908118 J0.018240
G03 X19.817042 Y31.598795 Z-1.000000 I-2.861801 J-0.436679
G02 X19.484628 Y33.036770 Z-1.000000 I12.450815 J3.635645
G02 X19.317258 Y34.505898 Z-1.000000 I12.830637 J2.205820
G01 X19.317258 Y34.515437 Z-1.000000
G02 X19.771103 Y35.176794 Z-1.000000 I0.655083 J0.036861
G02 X20.501011 Y34.895914 Z-1.000000 I0.190958 J-0.592595
G02 X20.812008 Y34.023454 Z-1.000000 I-2.223473 J-1.284237
G03 X21.317428 Y33.293457 Z-1.000000 I1.019014 J0.165560
G03 X21.174145 Y34.565502 Z-1.000000 I-1.448717 J0.480909
G02 X20.808332 Y35.872014 Z-1.000000 I2.160676 J1.309441
G02 X20.891234 Y36.258829 Z-1.000000 I0.943869 J0.000000
G02 X21.167390 Y36.472936 Z-1.000000 I0.339249 J-0.152418
G02 X21.371118 Y36.451057 Z-1.000000 I0.032741 J-0.654584
G02 X21.559560 Y36.366953 Z-1.000000 I-0.173430 J-0.641748
G02 X22.176803 Y36.019398 Z-1.000000 I-3.589199 J-7.096155
G02 X22.682263 Y35.533930 Z-1.000000 I-0.898256 J-1.441116
G02 X22.930003 Y34.154287 Z-1.000000 I-1.423945 J-0.967760
G02 X22.425645 Y32.707373 Z-1.000000 I-7.939885 J1.956287
G02 X21.636459 Y31.053942 Z-1.000000 I-49.826378 J22.767176
G02 X20.694509 Y29.495040 Z-1.000000 I-10.015628 J4.987801
G02 X19.489767 Y28.085367 Z-1.000000 I-9.070622 J6.532349
G02 X18.163513 Y26.788244 Z-1.000000 I-103.818871 J104.823841
G03 X16.132217 Y24.749314 Z-1.000000 I65.310269 J-67.097071
G03 X14.138338 Y22.673998 Z-1.000000 I374.181232 J-361.493464
G01 X11.397287 Y19.802929 Z-1.000000
G03 X8.988572 Y17.196270 Z-1.000000 I77.682503 J-74.199721
G03 X6.844390 Y14.363901 Z-1.000000 I16.277058 J-14.549965
G03 X4.853101 Y10.171235 Z-1.000000 I15.901226 J-10.121432
G03 X3.890181 Y5.592779 Z-1.000000 I19.749698 J-6.544153
G02 X3.563459 Y5.652845 Z-1.000000 I-0.000000 J0.918606
G02 X3.317965 Y5.865154 Z-1.000000 I0.168603 J0.443045
G02 X3.894978 Y9.725463 Z-1.000000 I13.954508 J-0.112549
G02 X5.618213 Y13.171596 Z-1.000000 I10.606879 J-3.150038
G01 X5.586135 Y13.216109 Z-1.000000
G00 Z5.000000

(End cutting path id: path3978)


(Footer)
M5
G00 X0.0000 Y0.0000
M2
(Using default footer. To add your own footer create file "footer" in the output dir.)
(end)