(Header)
(Generated by gcodetools from Inkscape.)
(Using default header. To add your own header create file "header" in the output dir.)
M3
(Header end.)
G21 (All units in mm)

(Start cutting path id: path6207)
(Change tool to Cylindrical cutter)

G00 Z5.000000
G00 X12.034089 Y20.216186

G01 Z-1.000000 F100.0(Penetrate)
G02 X11.827174 Y19.563285 Z-1.000000 I-8.640053 J2.378933 F50.000000
G03 X11.634597 Y18.898985 Z-1.000000 I5.171780 J-1.859330
G03 X11.508862 Y17.943187 Z-1.000000 I6.810091 J-1.382037
G03 X11.516617 Y16.979186 Z-1.000000 I6.935826 J-0.426239
G03 X11.782747 Y15.529929 Z-1.000000 I6.227054 J0.394427
G03 X12.381310 Y14.183492 Z-1.000000 I5.960924 J1.843683
G03 X12.529479 Y13.966765 Z-1.000000 I1.793415 J1.067082
G02 X12.690449 Y13.752639 Z-1.000000 I-5.867360 J-4.578386
G02 X10.539225 Y12.121642 Z-1.000000 I-56.559239 J72.365357
G02 X8.289323 Y10.645566 Z-1.000000 I-14.935817 J20.313110
G02 X6.407250 Y9.929129 Z-1.000000 I-3.109728 J5.338912
G02 X4.321291 Y10.054916 Z-1.000000 I-0.806801 J3.979507
G02 X3.146677 Y10.654192 Z-1.000000 I1.333950 J4.065410
G02 X2.210333 Y11.582691 Z-1.000000 I2.508564 J3.466134
G02 X0.676485 Y14.937651 Z-1.000000 I6.873637 J5.170654
G02 X0.424196 Y18.559977 Z-1.000000 I12.438731 J2.686288
G02 X0.753119 Y20.291286 Z-1.000000 I7.716241 J-0.569073
G02 X1.563680 Y21.896291 Z-1.000000 I5.201697 J-1.619788
G02 X3.002874 Y23.073247 Z-1.000000 I3.005769 J-2.207076
G02 X4.830549 Y23.418092 Z-1.000000 I1.597452 J-3.450730
G02 X6.297884 Y23.120080 Z-1.000000 I-0.321537 J-5.344574
G02 X7.668058 Y22.542944 Z-1.000000 I-4.284236 J-12.086196
G02 X9.785379 Y21.472942 Z-1.000000 I-49.354151 J-100.291857
G02 X11.863838 Y20.336407 Z-1.000000 I-24.953267 J-48.102558
G02 X11.948577 Y20.278779 Z-1.000000 I-0.481774 J-0.799539
G03 X12.034089 Y20.216186 Z-1.000000 I1.586417 J2.077588
G01 X12.034089 Y20.216186 Z-1.000000
G00 Z5.000000

(End cutting path id: path6207)


(Start cutting path id: path6205)
(Change tool to Cylindrical cutter)

G00 Z5.000000
G00 X18.009286 Y24.242463

G01 Z-1.000000 F100.0(Penetrate)
G03 X15.375271 Y23.548436 Z-1.000000 I0.533944 J-7.371868 F50.000000
G03 X13.200454 Y21.908985 Z-1.000000 I2.895167 J-6.102815
G03 X12.735343 Y21.330013 Z-1.000000 I6.740904 J-5.891550
G02 X12.287971 Y20.738139 Z-1.000000 I-24.982156 J18.417901
G02 X11.519220 Y21.008138 Z-1.000000 I1.883375 J6.591814
G02 X10.771397 Y21.328042 Z-1.000000 I22.464843 J53.548949
G02 X9.114699 Y22.056993 Z-1.000000 I175.841011 J401.883546
G02 X7.502288 Y22.885685 Z-1.000000 I6.308774 J14.258177
G02 X6.020636 Y24.141337 Z-1.000000 I2.912987 J4.939276
G02 X5.168063 Y25.909126 Z-1.000000 I3.060978 J2.565739
G02 X5.130691 Y27.218668 Z-1.000000 I3.733741 J0.761859
G02 X5.483176 Y28.479312 Z-1.000000 I5.057447 J-0.734498
G02 X6.673115 Y30.410270 Z-1.000000 I6.938132 J-2.943450
G02 X8.291563 Y31.976169 Z-1.000000 I8.726296 J-7.399809
G02 X10.154617 Y33.195789 Z-1.000000 I7.647898 J-9.649902
G02 X12.249142 Y33.973626 Z-1.000000 I3.943194 J-7.409125
G02 X14.154410 Y34.142354 Z-1.000000 I1.580611 J-7.006709
G02 X16.032737 Y33.525598 Z-1.000000 I-0.166277 J-3.674990
G02 X16.967143 Y32.577569 Z-1.000000 I-1.837381 J-2.745482
G02 X17.532136 Y31.394479 Z-1.000000 I-4.250164 J-2.756152
G02 X17.782168 Y30.331361 Z-1.000000 I-6.444329 J-2.076583
G02 X17.895785 Y29.254400 Z-1.000000 I-11.864148 J-1.796123
G02 X18.008416 Y26.869316 Z-1.000000 I-96.156574 J-5.735972
G02 X18.035421 Y24.480664 Z-1.000000 I-50.824927 J-1.769087
G02 X18.025438 Y24.361225 Z-1.000000 I-2.310985 J0.133022
G02 X18.009286 Y24.242463 Z-1.000000 I-2.301002 J0.252461
G01 X18.009286 Y24.242463 Z-1.000000
G00 Z5.000000

(End cutting path id: path6205)


(Start cutting path id: path6203)
(Change tool to Cylindrical cutter)

G00 Z5.000000
G00 X24.144279 Y21.130910

G01 Z-1.000000 F100.0(Penetrate)
G03 X23.672072 Y21.730810 Z-1.000000 I-61.320659 J-47.782332 F50.000000
G03 X23.156378 Y22.301009 Z-1.000000 I-4.742687 J-3.771037
G03 X21.978949 Y23.222523 Z-1.000000 I-4.715178 J-4.811670
G03 X20.627261 Y23.861639 Z-1.000000 I-3.537749 J-5.733184
G03 X19.645033 Y24.124372 Z-1.000000 I-2.367615 J-6.883930
G03 X18.635778 Y24.247690 Z-1.000000 I-1.385386 J-7.146664
G02 X18.495094 Y24.915126 Z-1.000000 I3.073533 J0.996394
G03 X18.423712 Y25.588039 Z-1.000000 I-91.100668 J-9.323648
G03 X18.180344 Y27.744316 Z-1.000000 I-446.598464 J-49.313361
G02 X18.131000 Y29.923455 Z-1.000000 I11.763898 J1.356506
G02 X18.841054 Y32.140614 Z-1.000000 I4.886973 J-0.342795
G02 X20.561551 Y33.711530 Z-1.000000 I3.581760 J-2.195193
G02 X21.517966 Y34.027206 Z-1.000000 I1.595136 J-3.226162
G02 X22.547060 Y34.140143 Z-1.000000 I1.330315 J-7.376876
G02 X25.056518 Y33.886528 Z-1.000000 I0.358754 J-8.992252
G02 X27.417122 Y33.036501 Z-1.000000 I-2.879202 J-11.698641
G02 X29.256797 Y31.925994 Z-1.000000 I-5.005848 J-10.371787
G02 X30.787038 Y30.402845 Z-1.000000 I-4.394263 J-5.944980
G02 X31.614998 Y28.531044 Z-1.000000 I-3.687010 J-2.749905
G02 X31.352300 Y26.445266 Z-1.000000 I-3.306236 J-0.643021
G02 X30.586806 Y25.332315 Z-1.000000 I-3.819107 J1.807073
G02 X29.584830 Y24.444075 Z-1.000000 I-5.874817 J5.617806
G02 X27.977821 Y23.354143 Z-1.000000 I-12.344401 J16.471059
G03 X26.323935 Y22.338345 Z-1.000000 I252.847517 J-413.531809
G02 X25.352812 Y21.767437 Z-1.000000 I-13.926537 J22.577871
G03 X24.370534 Y21.213048 Z-1.000000 I76.582986 J-136.838738
G02 X24.259237 Y21.166938 Z-1.000000 I-0.573016 J1.225716
G02 X24.144279 Y21.130910 Z-1.000000 I-0.461719 J1.271827
G01 X24.144279 Y21.130910 Z-1.000000
G00 Z5.000000

(End cutting path id: path6203)


(Start cutting path id: path6201)
(Change tool to Cylindrical cutter)

G00 Z5.000000
G00 X13.079487 Y13.232180

G01 Z-1.000000 F100.0(Penetrate)
G03 X13.985805 Y12.362773 Z-1.000000 I7.893380 J7.321396 F50.000000
G03 X15.020941 Y11.648402 Z-1.000000 I4.000758 J4.690015
G03 X16.576669 Y11.020439 Z-1.000000 I3.349706 J6.057554
G03 X18.237780 Y10.785202 Z-1.000000 I1.793978 J6.685516
G01 X18.689541 Y10.773254 Z-1.000000
G02 X18.857812 Y9.914155 Z-1.000000 I-6.527358 J-1.724533
G03 X18.970305 Y9.049094 Z-1.000000 I558.413966 J72.176971
G02 X19.180388 Y7.252325 Z-1.000000 I-60.904653 J-8.031801
G02 X19.307820 Y5.442471 Z-1.000000 I-28.767893 J-2.934951
G02 X19.216194 Y3.960920 Z-1.000000 I-7.357040 J-0.288618
G02 X18.731357 Y2.545971 Z-1.000000 I-4.429786 J0.727341
G02 X17.613358 Y1.240575 Z-1.000000 I-3.601713 J1.953218
G02 X16.055885 Y0.500724 Z-1.000000 I-2.533342 J3.323724
G02 X13.622823 Y0.353888 Z-1.000000 I-1.630998 J6.794273
G02 X11.276922 Y0.868854 Z-1.000000 I1.366512 J11.825887
G02 X9.108381 Y1.849444 Z-1.000000 I3.137717 J9.827069
G02 X7.222270 Y3.300898 Z-1.000000 I5.306258 J8.846478
G02 X6.306370 Y4.415412 Z-1.000000 I4.619046 J4.729501
G02 X5.739299 Y5.746383 Z-1.000000 I3.462874 J2.261674
G02 X5.782469 Y7.406818 Z-1.000000 I3.237981 J0.746592
G02 X6.552469 Y8.870630 Z-1.000000 I3.893704 J-1.113755
G02 X7.712794 Y9.972813 Z-1.000000 I5.107453 J-4.215021
G02 X9.024836 Y10.864353 Z-1.000000 I11.330534 J-15.263446
G02 X10.667995 Y11.879871 Z-1.000000 I2913.292086 J-4712.017121
G02 X12.317093 Y12.887199 Z-1.000000 I100.623323 J-162.877124
G02 X12.688748 Y13.070330 Z-1.000000 I1.205414 J-1.977633
G03 X13.079487 Y13.232180 Z-1.000000 I-3.115060 J8.072963
G01 X13.079487 Y13.232180 Z-1.000000
G00 Z5.000000

(End cutting path id: path6201)


(Start cutting path id: path6199)
(Change tool to Cylindrical cutter)

G00 Z5.000000
G00 X24.575880 Y14.730086

G01 Z-1.000000 F100.0(Penetrate)
G03 X24.970404 Y15.854964 Z-1.000000 I-7.851352 J3.385300 F50.000000
G03 X25.165783 Y17.037429 Z-1.000000 I-5.577491 J1.528944
G03 X25.057880 Y18.787054 Z-1.000000 I-7.031200 J0.444512
G03 X24.521370 Y20.455881 Z-1.000000 I-6.923297 J-1.305113
G02 X24.588578 Y20.625856 Z-1.000000 I0.248544 J0.000000
G02 X24.715515 Y20.741126 Z-1.000000 I0.778220 J-0.729463
G02 X26.442033 Y22.031753 Z-1.000000 I32.352704 J-41.479226
G02 X28.198184 Y23.279950 Z-1.000000 I178.141768 J-248.777222
G02 X29.504117 Y24.045231 Z-1.000000 I5.161418 J-7.310920
G02 X30.920700 Y24.512773 Z-1.000000 I2.544900 J-5.330879
G02 X33.293361 Y24.269799 Z-1.000000 I0.785882 J-4.031915
G02 X35.176963 Y22.826695 Z-1.000000 I-1.802029 J-4.302918
G02 X36.338991 Y20.689807 Z-1.000000 I-5.979310 J-4.635911
G02 X36.890670 Y18.341190 Z-1.000000 I-10.770808 J-3.769112
G02 X36.956126 Y16.191344 Z-1.000000 I-11.309459 J-1.420258
G02 X36.543448 Y14.067752 Z-1.000000 I-8.463742 J0.542866
G02 X35.856421 Y12.660660 Z-1.000000 I-5.528246 J1.827953
G02 X34.745363 Y11.558796 Z-1.000000 I-3.266827 J2.182990
G02 X33.580984 Y11.097759 Z-1.000000 I-1.710773 J2.619789
G02 X32.313319 Y11.053272 Z-1.000000 I-0.791165 J4.460959
G02 X30.709469 Y11.463589 Z-1.000000 I0.617557 J5.753638
G02 X29.224914 Y12.141232 Z-1.000000 I9.155779 J22.023092
G02 X26.969250 Y13.302302 Z-1.000000 I40.666228 J81.775795
G02 X24.758824 Y14.549382 Z-1.000000 I24.434625 J45.892445
G02 X24.649590 Y14.614198 Z-1.000000 I1.808595 J3.172453
G02 X24.575880 Y14.730086 Z-1.000000 I0.082680 J0.133974
G01 X24.575880 Y14.730086 Z-1.000000
G00 Z5.000000

(End cutting path id: path6199)


(Start cutting path id: path6197)
(Change tool to Cylindrical cutter)

G00 Z5.000000
G00 X19.377264 Y10.850166

G01 Z-1.000000 F100.0(Penetrate)
G03 X20.607512 Y11.166945 Z-1.000000 I-1.965336 J10.179896 F50.000000
G03 X21.773466 Y11.684244 Z-1.000000 I-1.888922 J5.830127
G03 X23.141524 Y12.715538 Z-1.000000 I-3.461140 J6.014404
G03 X24.215217 Y14.050578 Z-1.000000 I-4.829198 J4.983111
G02 X25.564066 Y13.564549 Z-1.000000 I-4.835239 J-15.533680
G02 X26.882476 Y13.005179 Z-1.000000 I-24.019909 J-58.447303
G02 X28.503834 Y12.290815 Z-1.000000 I-433.133944 J-985.260731
G02 X30.055259 Y11.440816 Z-1.000000 I-4.189506 J-9.487550
G02 X31.694338 Y9.741622 Z-1.000000 I-3.043641 J-4.576103
G02 X32.233421 Y7.371977 Z-1.000000 I-3.221070 J-1.978920
G02 X31.762783 Y5.719808 Z-1.000000 I-4.927899 J0.510647
G02 X30.849015 Y4.268638 Z-1.000000 I-7.015074 J3.403954
G02 X28.631262 Y2.144498 Z-1.000000 I-8.610110 J6.769750
G02 X25.911002 Y0.719511 Z-1.000000 I-6.392357 J8.893890
G02 X24.236813 Y0.319686 Z-1.000000 I-2.617012 J7.253141
G02 X22.500764 Y0.430533 Z-1.000000 I-0.574047 J4.659587
G02 X20.930465 Y1.321153 Z-1.000000 I0.851789 J3.331485
G02 X19.955967 Y2.832709 Z-1.000000 I2.946968 J2.969814
G02 X19.677707 Y3.836002 Z-1.000000 I6.759702 J2.415015
G02 X19.547515 Y4.868995 Z-1.000000 I7.037962 J1.411722
G02 X19.390233 Y7.856240 Z-1.000000 I130.626470 J8.375375
G02 X19.377264 Y10.850166 Z-1.000000 I40.605219 J1.672885
G01 X19.377264 Y10.850166 Z-1.000000
G00 Z5.000000

(End cutting path id: path6197)


(Start cutting path id: path6195)
(Change tool to Cylindrical cutter)

G00 Z5.000000
G00 X19.377264 Y10.850166

G01 Z-1.000000 F100.0(Penetrate)
G03 X19.031558 Y10.837989 Z-1.000000 I1.882743 J-58.365022 F50.000000
G03 X18.688048 Y10.775494 Z-1.000000 I0.047143 J-1.234453
G01 X18.236287 Y10.787442 Z-1.000000
G02 X16.575175 Y11.022679 Z-1.000000 I0.132867 J6.920754
G02 X15.019447 Y11.650642 Z-1.000000 I1.793978 J6.685516
G02 X13.981670 Y12.366046 Z-1.000000 I2.915344 J5.339458
G02 X13.077993 Y13.234420 Z-1.000000 I7.007061 J8.196316
G03 X12.906692 Y13.513050 Z-1.000000 I-1.653849 J-0.824809
G03 X12.688956 Y13.757119 Z-1.000000 I-1.482548 J-1.103439
G03 X12.528465 Y13.969835 Z-1.000000 I-5.467164 J-3.957999
G02 X12.379817 Y14.187973 Z-1.000000 I1.528435 J1.201255
G02 X11.781254 Y15.534410 Z-1.000000 I5.362361 J3.190120
G02 X11.515123 Y16.983666 Z-1.000000 I5.960924 J1.843683
G02 X11.507369 Y17.947667 Z-1.000000 I6.928071 J0.537762
G02 X11.633104 Y18.903465 Z-1.000000 I6.935826 J-0.426239
G02 X11.825081 Y19.567653 Z-1.000000 I5.172502 J-1.135219
G03 X12.032595 Y20.220667 Z-1.000000 I-8.262287 J2.985071
G03 X12.190696 Y20.466882 Z-1.000000 I-0.953521 J0.786145
G03 X12.286478 Y20.743366 Z-1.000000 I-1.111621 J0.539930
G03 X12.734328 Y21.337057 Z-1.000000 I-22.765186 J17.638675
G02 X13.198961 Y21.914212 Z-1.000000 I6.721827 J-4.935737
G02 X15.374028 Y23.548877 Z-1.000000 I5.076965 J-4.490959
G02 X18.009286 Y24.242463 Z-1.000000 I3.170193 J-6.691969
G03 X18.322731 Y24.221270 Z-1.000000 I0.296151 J2.051611
G03 X18.635778 Y24.247690 Z-1.000000 I-0.017294 J2.072803
G02 X19.645033 Y24.124372 Z-1.000000 I-0.376132 J-7.269981
G02 X20.627261 Y23.861639 Z-1.000000 I-1.385386 J-7.146664
G02 X21.978949 Y23.222523 Z-1.000000 I-2.186061 J-6.372300
G02 X23.156378 Y22.301009 Z-1.000000 I-3.537749 J-5.733184
G02 X23.670883 Y21.731192 Z-1.000000 I-4.167663 J-4.280302
G02 X24.144279 Y21.130910 Z-1.000000 I-126.452425 J-100.209972
G03 X24.314143 Y20.784407 Z-1.000000 I3.201213 J1.354421
G03 X24.521370 Y20.458868 Z-1.000000 I3.031349 J1.700924
G02 X25.057880 Y18.790041 Z-1.000000 I-6.386786 J-2.973940
G02 X25.165783 Y17.040416 Z-1.000000 I-6.923297 J-1.305113
G02 X24.970451 Y15.859023 Z-1.000000 I-5.761811 J0.345815
G02 X24.575880 Y14.733073 Z-1.000000 I-8.308925 J2.279620
G01 X24.217457 Y14.053564 Z-1.000000
G02 X23.143764 Y12.718524 Z-1.000000 I-5.902891 J3.648071
G02 X21.775706 Y11.687231 Z-1.000000 I-4.829198 J4.983111
G02 X20.609691 Y11.167485 Z-1.000000 I-3.036523 J5.244426
G02 X19.377264 Y10.850166 Z-1.000000 I-3.180956 J9.802459
G01 X19.377264 Y10.850166 Z-1.000000
G00 Z5.000000

(End cutting path id: path6195)


(Footer)
M5
G00 X0.0000 Y0.0000
M2
(Using default footer. To add your own footer create file "footer" in the output dir.)
(end)